!!!!SEGMENT: pl-wn--mus-iii-123-982--001-009_wieniawski-henryk--l-ecole-moderne-etudes-caprices-pour-violon-seul-op-10-les-arpeges.krn
!!!cenid: 18xx:3822
!!!COM: Wieniawski, Henryk
!!!COM-rismID: pe137176
!!!CDT: 1835/07/10-1880/03/31
!!!CNT:
!!!GTL: L'école moderne.Etudes-caprices pour violon seul op. 10
!!!OTL: Les Arpéges
!!!OMV: 009
!!!PDT:
!!!AGN:
!!!SMS-siglum: PL-Wn
!!!SMS-shelfmark: Mus.III.123.982
!!!SMS-shelfwork: 001-009 G
!!!SMS-variant:
!!!SMS-altvar:
!!!NIFC-rismSourceID:
!!!NIFC-rismChildID:
!!!NIFC-islandoraID: none
!!!URL-pdf-islandora:
!!!URL-scan: https://polona2.pl/item/l-ecole-moderne-etudes-caprices-pour-violon-seul-op-10,MTE2OTgzMTMy/4 @EN{Scan on Polona} @PL{Skany w portalu Polona}
!!!IIIF: https://polona2.pl/iiif/item/MTE2OTgzMTMy/manifest.json
!!!ONB-nifc: UWAGA: od skanu 23. Temat z wariacjami w jednym pliku.
!!!OMD: Andante.
!!!AIN: 2 violn
!!!key: G
**kern	**fing	**kern	**dynam	**fing
*part2	*	*part1	*part1	*
*staff2	*	*staff1	*	*
*I"[Violon seul]	*	*I"[Violon seul]	*	*
*mI"Violino	*	*mI"Violino	*	*
*I'	*	*I'	*	*
*mI'vn	*	*mI'vn	*	*
*Ivioln	*	*Ivioln	*	*
*ICstr	*	*ICstr	*	*
*IGsolo	*	*IGsolo	*	*
*clefG2	*	*clefG2	*	*
*k[f#]	*	*k[f#]	*	*
*G:	*	*G:	*	*
*M4/4	*	*M4/4	*	*
*met(c)	*	*met(c)	*	*
*	*	*xywh-20:414,363,3641,1041	*	*
!	!	!LO:TX:a:B:t=Variations sur l’Hymne autrichien.	!	!
!	!	!LO:TX:a:B:t=THÊME.	!LO:DY:rj	!
2ryy	.	(4.g 4.Bv/	f	.
.	.	8a 8d/)	.	.
=1	=1	=1	=1	=1
1ryy	.	4b 4d 4G/	.	.
.	.	4a 4f# 4d/	.	.
.	.	4cc 4f# 4d/	.	1
.	.	(8bL 8g 8G/	.	.
.	.	8B/J)	.	.
=2	=2	=2	=2	=2
1ryy	.	(8aL 8d 8c/	.	.
.	.	8f#/J)	.	.
.	.	4g 4B/	.	.
.	.	4ee 4g 4c/	.	.
.	.	4dd 4g 4B/	.	.
=3	=3	=3	=3	=3
1ryy	.	4cc 4d 4A/	.	.
.	.	4b 4d 4G/	.	.
.	.	4a 4e 4c/	.	.
!	!	!LO:S:s=1:note:problem:note-level slur	!	!
.	.	8bL 8e (8c#X/	.	.
*	*	*	*	*below
!	!	!LO:S:s=1:note:problem:note-level slur	!	!
.	.	8g/J)	.	2
=4	=4	=4	=4	=4
*	*	*	*	*^
*	*	*	*	*above	*
1ryy	.	2dd 2f# 2d/	.	4	1 3
.	.	(4.gg 4.g\	.	.	.
.	.	8aa 8a\)	.	.	.
=5	=5	=5	=5	=5	=5
1ryy	.	4bb 4b 4d 4G/	.	.	.
.	.	4aa 4dd 4f# 4d/	.	2 2	1 3
.	.	4ccc 4a 4f# 4d/	.	4	0 1 3
.	.	(8bbL 8b 8g 8G/	.	.	.
.	.	8B/J)	.	.	.
!!LO:LB:g=original
=6	=6	=6	=6	=6	=6
*	*	*xywh-20:400,1375,3619,429	*	*	*
1ryy	.	8aaL 8a 8d 8c/	.	4	0 0 3
.	.	8ff#/J	.	1	.
.	.	4gg 4g 4B/	.	4	2 1
.	.	4eee 4ee 4g 4c/	.	.	.
.	.	4ddd 4dd 4g 4B/	.	.	.
=7	=7	=7	=7	=7	=7
1ryy	.	4ccc 4cc 4d 4A/	.	2 4	.
.	.	4bb 4b 4d 4G/	.	.	.
.	.	4aa 4a 4e 4c/	.	4	0 1 3
.	.	8bbL 8b 8e 8c#X/	.	.	.
.	.	8gg/J	.	.	.
=8	=8	=8	=8	=8	=8
1ryy	.	2ddd 2a 2f# 2d/	.	4	0 1 3
.	.	4a 4f# 4d/	.	.	.
.	.	4b 4g 4d/	.	.	.
*	*	*	*	*v	*v
=9	=9	=9	=9	=9
1ryy	.	(8aL 8f# 8d/	.	.
.	.	8aJ 8d/)	.	.
.	.	4d/ 4d	.	.
.	.	4cc 4d 4A/	.	.
.	.	(8bL 8d 8G/	.	.
.	.	8B/J)	.	.
=10	=10	=10	=10	=10
*	*	*^	*	*
1ryy	.	(8aL 8f# 8d/	4ryy	.	.
.	.	8f#J 8d/)	.	.	.
.	.	4d/	(>8d\L	.	.
.	.	.	8c\J)	.	.
.	.	4dd 4g 4B/	2ryy	.	.
.	.	4cc 4d 4A/	.	.	.
!!LO:LB:g=original
=11	=11	=11	=11	=11	=11
*	*	*xywh-20:451,1761,3597,466	*	*	*
!	!	!LO:N:n=3:vis=4	!	!	!
!	!	!LO:N:n=2:vis=4	!	!	!
1ryy	.	4.b 4.d 4.G/	4ryy	.	.
.	.	.	(8g\L	.	.
.	.	8b/	8f#\J)	.	.
.	.	4.cc#X/	4e\	.	.
.	.	.	(8a\L	.	.
.	.	8cc#/	8g\J)	.	.
*	*	*v	*v	*	*
=12	=12	=12	=12	=12
1ryy	.	2dd 2f# 2d;/	.	.
*	*	*	*	*above
!	!	!LO:TX:a:i:t=Sul D.A.	!	!
.	.	(4.gg 4.bv\	.	1 2
.	.	8ff# 8dd\)	.	4 2
=13	=13	=13	=13	=13
1ryy	.	8ff#L 8g 8c/	.	.
.	.	8eeJ 8g 8e/	.	.
.	.	4dd 4b 4g/	.	.
.	.	(4.ee 4.cc\	.	.
.	.	8dd 8b\)	.	.
=14	=14	=14	=14	=14
*	*	*^	*	*^
1ryy	.	(8dd/L	(>16f#\LL	.	.	.
.	.	.	16d\	.	.	.
.	.	8cc/J)	16e\	.	.	.
.	.	.	16f#\JJ)	.	.	.
.	.	4b/	4g\	.	.	.
.	.	4.a/	4f# 4e-X\	.	0	1 4
.	.	.	8f#L 8d\	.	.	.
.	.	(<16b/LL	8f#J 8c\	.	.	.
.	.	16cc/JJ)	.	.	.	.
*	*	*v	*v	*	*v	*v
=15	=15	=15	=15	=15
1ryy	.	8ddL 8g 8B/	.	.
.	.	8ee 8e 8c/	.	.
.	.	8cc 8e 8A/	.	.
.	.	8aJ 8e-X 8c/	.	.
.	.	4g 4B/	.	.
.	.	(8bL 8d 8c/	.	.
.	.	8a/J)	.	.
=	=	=	=	=
2ryy	.	2g 2B/	.	.
!!LO:LB:g=original
=16||	=16||	=16||	=16||	=16||
*M4/4	*	*M4/4	*	*
*met(c)	*	*met(c)	*	*
*	*	*xywh-20:385,2147,3627,604	*	*
!	!	!LO:TX:a:B:t=1. VAR.	!	!
2ryy	.	(4.g 4.Bv/	.	.
.	.	8a 8d/)	.	.
=17	=17	=17	=17	=17
.	.	(16qqG/LL	.	.
.	.	16qqd/	.	.
.	.	16qqb/JJ	.	.
1ryy	.	32bb^u/LLL)	p	.
.	.	(32gg'v/	.	.
.	.	32dd'/	.	.
.	.	32b'/	.	.
.	.	32g'/	.	.
.	.	32d'/	.	.
.	.	32B'/	.	.
.	.	32G'/JJJ	.	.
.	.	32A'^/LLL)	.	.
.	.	(32c'u/	.	.
.	.	32d'/	.	.
.	.	32f#'/	.	.
.	.	32a'/	.	.
.	.	32cc'/	.	.
.	.	32dd'/	.	.
.	.	32ff#'/JJJ	.	.
.	.	32ccc'^/LLL)	.	.
.	.	(32aa'v/	.	.
.	.	32ff#'/	.	.
.	.	32dd'/	.	.
.	.	32cc'/	.	.
.	.	32a'/	.	.
.	.	32f#'/	.	.
.	.	32c'/JJJ	.	.
.	.	32B'^/LLL)	.	.
.	.	(32d'u/	.	.
.	.	32g'/	.	.
.	.	32b'/	.	.
.	.	32dd'/	.	.
.	.	32gg'/	.	.
.	.	32bb'/	.	.
.	.	32ddd'/JJJ)	.	.
!!LO:LB:g=original
=18	=18	=18	=18	=18
*	*	*xywh-20:553,2620,3532,619	*	*
!	!	!LO:TUP:a	!	!
1ryy	.	(48aa'\LLL	.	.
.	.	48cc'\	.	.
.	.	48d'\)	.	.
.	.	(48d'\	.	.
.	.	48cc'\	.	.
.	.	48aa'\)JJJ	.	.
!	!	!LO:TUP:a	!	!
.	.	(48ff#'\LLL	.	.
.	.	48cc'\	.	.
.	.	48d'\)	.	.
.	.	(48d'\	.	.
.	.	48cc'\	.	.
.	.	48ff#'\JJJ)	.	.
.	.	(64gg'/LLLL	.	.
.	.	64b'/	.	.
.	.	64d'/	.	.
.	.	64G'/)	.	.
.	.	(64G'/	.	.
.	.	64d'/	.	.
.	.	64b'/	.	.
.	.	64gg'/JJJJ)	.	.
!	!	!LO:TX:t=P:problem:8gggg=cue	!	!
!	!	!LO:N:n=2:vis=2	!	!
.	.	8gggg 8rccc 8rggv\	.	.
.	.	32eee`^u\LLL	.	.
.	.	(32ccc'v\	.	.
.	.	32gg'\	.	.
.	.	32ee'\	.	.
.	.	32cc'\	.	.
.	.	32g'\	.	.
.	.	32e'\	.	.
.	.	32c'\JJJ	.	.
.	.	32B'\LLL)	.	.
.	.	(32d'u\	.	.
.	.	32g'\	.	.
.	.	32b'\	.	.
.	.	32dd'\	.	.
.	.	32gg'\	.	.
.	.	32bb'\	.	.
.	.	32ddd'\JJJ	.	.
=19	=19	=19	=19	=19
1ryy	.	32ccc'\LLL)	.	.
.	.	(32aa'v\	.	.
.	.	32ff#'\	.	.
.	.	32cc'\	.	.
.	.	32a'\	.	.
.	.	32f#'\	.	.
.	.	32c'\	.	.
.	.	32A'\JJJ	.	.
.	.	32G'\LLL)	.	.
.	.	(32B'u\	.	.
.	.	32d'\	.	.
.	.	32g'\	.	.
.	.	32b'\	.	.
.	.	32dd'\	.	.
.	.	32gg'\	.	.
.	.	32bb'\JJJ	.	.
.	.	(32aa\LLL	.	.
.	.	32bbb\))	.	.
.	.	(32aaa'\	.	.
.	.	32ggg'\	.	.
.	.	32eee'\	.	.
.	.	32ccc#X'\	.	.
.	.	32aa'\	.	.
.	.	32gg'\JJJ	.	.
.	.	32ee'/LLL	.	.
.	.	32cc#X'/	.	.
.	.	32a'/	.	.
.	.	32g'/	.	.
.	.	32e'/	.	.
.	.	32c#X'/	.	.
.	.	32A'/	.	.
.	.	32c#'/JJJ)	.	.
!!LO:LB:g=original
=20	=20	=20	=20	=20
*	*	*xywh-20:494,3101,3568,524	*	*
!	!	!LO:TX:a:t=P:problem:mixed beam	!	!
1ryy	.	(8d/L	.	.
.	.	8ddd\J)	.	.
.	.	(32ccc#X'\LLL	.	.
.	.	32ddd'\	.	.
.	.	32eee'\	.	.
.	.	32ddd'\	.	.
.	.	32fff#'\	.	.
.	.	32eee'\	.	.
.	.	32ddd'\	.	.
.	.	32cccn'\J	.	.
.	.	32bb'\L	.	.
.	.	32aa'\	.	.
.	.	32gg'\	.	.
.	.	32ff#'\	.	.
.	.	32ee'\	.	.
.	.	32dd'\	.	.
.	.	32cc'\	.	.
.	.	32b'\J	.	.
.	.	32a'\L	.	.
.	.	32g'\	.	.
.	.	32f#'\	.	.
.	.	32e'\	.	.
.	.	32d'\	.	.
.	.	32c'\	.	.
.	.	32B'\	.	.
.	.	32A'\JJJ)	.	.
=21	=21	=21	=21	=21
.	.	&(>&&(16qqG/LL	.	.
.	.	16qqd/	.	.
.	.	16qqb/JJ&)	.	.
1ryy	.	32bb^\LLL&&)	.	.
.	.	(32gg'\	.	.
.	.	32dd'\	.	.
.	.	32b'\	.	.
.	.	32g'\	.	.
.	.	32d'\	.	.
.	.	32B'\	.	.
.	.	32G'\JJJ	.	.
.	.	32A'^\LLL)	.	.
.	.	(32c'\	.	.
.	.	32d'\	.	.
.	.	32f#'\	.	.
.	.	32a'\	.	.
.	.	32cc'\	.	.
.	.	32dd'\	.	.
.	.	32ff#'\JJJ	.	.
.	.	32ccc'\LLL)	.	.
.	.	(32aa'\	.	.
.	.	32ff#'\	.	.
.	.	32dd'\	.	.
.	.	32cc'\	.	.
.	.	32a'\	.	.
.	.	32f#'\	.	.
.	.	32c'\JJJ	.	.
.	.	32B'\LLL)	.	.
.	.	(32d'\	.	.
.	.	32g'\	.	.
.	.	32b'\	.	.
.	.	32dd'\	.	.
.	.	32gg'\	.	.
.	.	32bb'\	.	.
.	.	32ddd'\JJJ)	.	.
!!LO:LB:g=original
=22	=22	=22	=22	=22
*	*	*xywh-20:502,3487,3459,568	*	*
!	!	!LO:TUP:a	!	!
1ryy	.	(48aa'\LLL	.	.
.	.	48cc'\	.	.
.	.	48d'\)	.	.
.	.	(48d'\	.	.
.	.	48cc'\	.	.
.	.	48aa'\)JJJ	.	.
!	!	!LO:TUP:a	!	!
.	.	(48ff#'\LLL	.	.
.	.	48cc'\	.	.
.	.	48d'\)	.	.
.	.	(48d'\	.	.
.	.	48cc'\	.	.
.	.	48ff#'\JJJ)	.	.
.	.	(64gg'/LLLL	.	.
.	.	64b'/	.	.
.	.	64d'/	.	.
.	.	64G'/)	.	.
.	.	(64G'/	.	.
.	.	64d'/	.	.
.	.	64b'/	.	.
.	.	64gg'/JJJJ)	.	.
!	!	!LO:TX:t=P:problem:8gggg=cue	!	!
!	!	!LO:N:n=2:vis=2	!	!
.	.	8gggg 8rccc 8rgg\	.	.
.	.	32eee`\LLL	.	.
.	.	(32ccc'v\	.	.
.	.	32gg'\	.	.
.	.	32ee'\	.	.
.	.	32cc'\	.	.
.	.	32g'\	.	.
.	.	32e'\	.	.
.	.	32c'\JJJ	.	.
.	.	32B'\LLL)	.	.
.	.	(32d'u\	.	.
.	.	32g'\	.	.
.	.	32b'\	.	.
.	.	32dd'\	.	.
.	.	32gg'\	.	.
.	.	32bb'\	.	.
.	.	32ddd'\JJJ	.	.
=23	=23	=23	=23	=23
1ryy	.	32ccc'\LLL)	.	.
.	.	(32aa'\	.	.
.	.	32ff#'\	.	.
.	.	32cc'\	.	.
.	.	32a'\	.	.
.	.	32f#'\	.	.
.	.	32c'\	.	.
.	.	32A'\JJJ	.	.
.	.	32G'\LLL)	.	.
.	.	(32B'u\	.	.
.	.	32d'\	.	.
.	.	32g'\	.	.
.	.	32b'\	.	.
.	.	32dd'\	.	.
.	.	32gg'\	.	.
.	.	32bb'\JJJ	.	.
.	.	(32aa\LLL	.	.
.	.	32bbb\))	.	.
.	.	(32aaa'v\	.	.
.	.	32ggg'\	.	.
.	.	32eee'\	.	.
.	.	32ccc#X'\	.	.
.	.	32aa'\	.	.
.	.	32gg'\JJJ	.	.
.	.	32ee'/LLL	.	.
.	.	32cc#X'/	.	.
.	.	32a'/	.	.
.	.	32g'/	.	.
.	.	32e'/	.	.
.	.	32c#X'/	.	.
.	.	32A'/	.	.
.	.	32c#'/JJJ)	.	.
!!LO:LB:g=original
=24	=24	=24	=24	=24
*	*	*xywh-20:698,3895,3292,568	*	*
!	!	!LO:MO:mod=!LO&colon;TX&colon;t=Sul D	!	!
!	!	!LO:TX:a:i:t=Sul D:problem:text with extention lines	!	!
!	!	!LO:TUP:a:r=8:num=6	!	!
1ryy	.	(48d\LLL	.	.
.	.	48f#\	.	.
.	.	48e\	.	.
.	.	48d\	.	.
.	.	48f#\	.	.
.	.	48a\J	.	.
!	!	!LO:TUP:a:r=8:num=6	!	!
.	.	48dd\L	.	1
.	.	48ff#\	.	.
.	.	48ee\	.	.
.	.	48dd\	.	.
.	.	48ff#\	.	3
.	.	48aa\JJJ)	.	4
*	*	*	*	*below
.	.	4ddd\	.	0 4
.	.	32aaa`\LLL	.	.
.	.	(32fff#'\	.	.
.	.	32ddd'\	.	.
.	.	32ccc'\	.	.
.	.	32aa'\	.	.
.	.	32ff#'\	.	.
.	.	32dd'\	.	.
.	.	32cc'\JJJ	.	.
.	.	32b'/LLL	.	.
.	.	32g'/	.	.
.	.	32dd'/	.	.
.	.	32b'/	.	.
.	.	32g'/	.	.
.	.	32d'/	.	.
.	.	32B'/	.	.
.	.	32G'/JJJ)	.	.
=25	=25	=25	=25	=25
!	!	!LO:MO:mod=!LO&colon;TX&colon;t=Sul D	!	!
!	!	!LO:TX:a:i:t=Sul D:problem:text with extention lines	!	!
1ryy	.	(32d/LLL	.	.
.	.	32e/	.	.
.	.	32f#/)	.	.
.	.	32a`/JJJ	.	.
.	.	(32d/LLL	.	.
.	.	32e/	.	.
.	.	32f#/)	.	.
.	.	32dd`/JJJ	.	.
.	.	(32d\LLL	.	.
.	.	32e\	.	.
.	.	32f#\)	.	.
.	.	32ff#`\JJJ	.	.
.	.	(32d\LLL	.	.
.	.	32e\	.	.
.	.	32f#\)	.	.
.	.	32aa`\JJJ	.	.
.	.	32cccc`\LLL	.	.
.	.	(32aaa'\	.	.
.	.	32fff#'\	.	.
.	.	32ddd'\	.	.
.	.	32ccc'\	.	.
.	.	32aa'\	.	.
.	.	32ff#'\	.	.
.	.	32cc'\JJJ	.	.
.	.	32b'/LLL	.	.
.	.	32g'/	.	.
.	.	32dd'/	.	.
.	.	32b'/	.	.
.	.	32g'/	.	.
.	.	32d'/	.	.
.	.	32B'/	.	.
.	.	32G'/JJJ)	.	.
!!LO:LB:g=original
=26	=26	=26	=26	=26
*	*	*xywh-20:545,4281,3459,786	*	*
!	!	!LO:MO:mod=!LO&colon;TX&colon;t=Sul D	!	!
!	!	!LO:TX:a:i:t=Sul D:problem:text with extention lines	!	!
1ryy	.	(32d/LLL	.	.
.	.	32e/	.	.
.	.	32f#/)	.	.
.	.	32a`/JJJ	.	.
.	.	(32d/LLL	.	.
.	.	32e/	.	.
.	.	32f#/)	.	.
.	.	32dd`/JJJ	.	.
.	.	(32d\LLL	.	.
.	.	32e\	.	.
.	.	32f#\)	.	.
.	.	32aa`\JJJ	.	.
.	.	(32d\LLL	.	.
.	.	32e\	.	.
.	.	32f#\)	.	.
.	.	32ddd`\JJJ	.	.
.	.	32ddd`\LLL	.	.
.	.	(32bb'v\	.	.
.	.	32gg'\	.	.
.	.	32dd'\	.	.
.	.	32b'\	.	.
.	.	32g'\	.	.
.	.	32d'\	.	.
.	.	32B'\JJJ	.	.
.	.	32A'\LLL)	.	.
.	.	(32c'u\	.	.
.	.	32d'\	.	.
.	.	32f#'\	.	.
.	.	32a'\	.	.
.	.	32cc'\	.	.
.	.	32dd'\	.	.
.	.	32ccc'\JJJ	.	.
=27	=27	=27	=27	=27
*	*	*^	*	*
1ryy	.	32bb'\LLL)	2.ryy	.	.
.	.	(32gg'v\	.	.	.
.	.	32ddd'\	.	.	.
.	.	32bb'\	.	.	.
.	.	32gg'\	.	.	.
.	.	32dd'\	.	.	.
.	.	32bb'\	.	.	.
.	.	32gg'\	.	.	.
.	.	32dd'\	.	.	.
.	.	32b'\	.	.	.
.	.	32gg'\	.	.	.
.	.	32dd'\	.	.	.
.	.	32b'\	.	.	.
.	.	32g'\	.	.	.
.	.	32d'\	.	.	.
.	.	32B'\JJJ)	.	.	.
.	.	(32A\LLL	.	.	.
.	.	32c#X\)	.	.	.
.	.	32e`\	.	.	.
.	.	32a`\	.	.	.
.	.	32cc#X`\	.	.	.
.	.	32ee`\	.	.	.
.	.	32aa`\	.	.	.
.	.	32ccc#X`\JJJ	.	.	.
*	*	*cue	*	*	*
!	!	!	!LO:N:n=2:vis=2	!	!
.	.	32eee/LLL	32eeeyy 32ree 32rayy\LLL	.	.
!	!	!	!LO:N:n=2:vis=2	!	!
.	.	32aaa/	32aaayy 32rdd 32rayy\	.	.
!	!	!LO:SIC:v:s=32cccc#/	!LO:N:n=2:vis=2	!	!
.	.	32cccc/	32cccc#yy 32rff# 32rcc#yy\	.	.
!	!	!	!LO:N:n=2:vis=2	!	!
.	.	32eeee/JJJ	32eeeeyy 32raa 32reeyy\JJJ	.	.
!	!	!LO:TX:a:t=P:problem:mixed beam	!	!	!
!	!	!LO:N:vis=4.	!LO:N:n=2:vis=2	!	!
.	.	8aaaa/	16.aaaayy 16.rdddLL 16.raa\	.	.
.	.	.	32c#Xv>/JJk	.	.
*	*	*Xcue	*	*	*
*	*	*v	*v	*	*
!!LO:PB:g=original
=28	=28	=28	=28	=28
*	*	*xywh-21:113,295,3725,819	*	*
1ryy	.	16d/LL	.	.
.	.	32f#/L	.	.
.	.	32d/	.	.
.	.	32a/	.	.
.	.	32d/	.	.
.	.	32dd/	.	.
.	.	32d/JJJ	.	.
.	.	32ff#\LLL	.	.
.	.	32d\	.	.
.	.	32aa\	.	.
.	.	32d\	.	.
.	.	32ddd\	.	.
.	.	32d\	.	.
.	.	32fff#\	.	.
.	.	(32d\JJJ	.	.
.	.	32ggg`\LLL)	.	.
.	.	(32ddd'v\	.	.
.	.	32bb'\	.	.
.	.	32gg'\	.	.
.	.	32dd'\	.	.
.	.	32b'\	.	.
.	.	32g'\	.	.
.	.	32d'\JJJ	.	.
.	.	32B'/LLL)	.	.
.	.	(32d'u/	.	.
.	.	32g'/	.	.
.	.	32b'/	.	.
.	.	32dd'/	.	.
.	.	32gg'/	.	.
.	.	32bb'/	.	.
.	.	32ddd'/JJJ)	.	.
=29	=29	=29	=29	=29
!	!	!LO:TUP:a	!	!
1ryy	.	(48fff#'\LLL	.	.
.	.	48gg'\	.	.
.	.	48cc'\)	.	.
.	.	(48cc'\	.	.
.	.	48gg'\	.	.
.	.	48fff#'\JJJ)	.	.
!	!	!LO:TUP:a	!	!
.	.	(48eee'\LLL	.	.
.	.	48gg'\	.	.
.	.	48cc'\)	.	.
.	.	(48cc'\	.	.
.	.	48gg'\	.	.
.	.	48eee'\JJJ)	.	.
.	.	(64ddd'/LLLL	.	.
.	.	64gg'/	.	.
.	.	64b'/	.	.
.	.	64G'/)	.	.
.	.	(64G'/	.	.
.	.	64b'/	.	.
.	.	64gg'/	.	.
.	.	64ddd'/JJJJ)	.	.
!	!	!LO:TX:t=P:problem:8dddd=cue	!	!
!	!	!LO:N:n=2:vis=2	!	!
.	.	8dddd 8rgg 8rdd\	.	.
.	.	32eee`\LLL	.	.
.	.	(32ccc'v\	.	.
.	.	32gg'\	.	.
.	.	32ee'\	.	.
.	.	32cc'\	.	.
.	.	32g'\	.	.
.	.	32e'\	.	.
.	.	32c'\JJJ	.	.
.	.	32B'\LLL)	.	.
.	.	(32d'u\	.	.
.	.	32g'\	.	.
.	.	32b'\	.	.
.	.	32dd'\	.	.
.	.	32gg'\	.	.
.	.	32bb'\	.	.
.	.	32ddd'\JJJ)	.	.
!!LO:LB:g=original
=30	=30	=30	=30	=30
*	*	*xywh-21:113,940,3667,543	*	*
!	!	!LO:TUP:a	!	!
1ryy	.	(48ddd'\LLL	.	.
.	.	48ff#'\	.	.
.	.	48d'\)	.	.
.	.	(48d'\	.	.
.	.	48ff#'\	.	.
.	.	48ddd'\JJJ)	.	.
!	!	!LO:TUP:a	!	!
.	.	(48ccc'\LLL	.	.
.	.	48ff#'\	.	.
.	.	48d'\)	.	.
.	.	(48d'\	.	.
.	.	48ff#'\	.	.
.	.	48ccc'\JJJ)	.	.
!	!	!LO:TX:t=P:problem:pod pięciolinią określenie liczby nut: 8	!	!
.	.	(64bb'/LLLL	.	.
.	.	64gg'/	.	.
.	.	64d'/	.	.
.	.	64G'/)	.	.
.	.	(64G/	.	.
.	.	64d'/	.	.
.	.	64gg'/	.	.
.	.	64bb'/JJJJ)	.	.
.	.	8dddd\	.	.
.	.	(32aa/LLL	.	.
.	.	32gg#X/)	.	.
.	.	(32ggn'/	.	.
.	.	32ff#'/	.	.
.	.	32ee'/	.	.
.	.	32dd'/	.	.
.	.	32cc'/	.	.
.	.	32b'/JJ	.	.
.	.	32a'/LL	.	.
.	.	32g'/	.	.
.	.	32f#'/	.	.
.	.	32e'/	.	.
.	.	32d'/	.	.
.	.	32c#X'/	.	.
.	.	32d'/	.	.
.	.	32cn'/JJJ)	.	.
!!LO:LB:g=original
=31	=31	=31	=31	=31
*	*	*xywh-21:120,1368,3573,558	*	*
1ryy	.	(32B\LLL	.	.
.	.	32d\	.	.
.	.	32g\	.	.
.	.	32b\)	.	.
*	*	*	*	*above
!	!	!LO:MO:mod=!LO&colon;TX&colon;b&colon;t=Sul A	!	!
!	!	!LO:TX:b:i:t=Sul A:problem:text with extention lines	!	!
.	.	(32eee'\	.	3 0
.	.	32eee'\	.	.
.	.	32eee'\	.	.
.	.	32eee'\JJJ)	.	.
.	.	(32c\LLL	.	.
.	.	32e\	.	.
.	.	32a\	.	.
.	.	32cc\)	.	.
!	!	!LO:MO:mod=!LO&colon;TX&colon;b&colon;t=Sul A	!	!
!	!	!LO:TX:b:i:t=Sul A:problem:text with extention lines	!	!
.	.	(32aaa'\	.	3 0
.	.	32aaa'\	.	.
.	.	32aaa'\	.	.
.	.	32aaa'\JJJ)	.	.
!	!	!LO:TX:a:t=P:problem:mixed beam	!	!
.	.	(32d/LLL	.	.
.	.	32ddd 32bb\)	.	.
.	.	(32ccc 32aa'\	.	.
.	.	32bb 32gg'\	.	.
.	.	32aa 32ff#'\	.	.
.	.	32gg 32ee'\	.	.
.	.	32ff# 32dd'\	.	.
.	.	32eeJJJ 32cc'\	.	.
.	.	32ddLLL 32d'/	.	.
.	.	32cc#X 32d'/	.	.
.	.	32ccn 32d'/	.	.
.	.	32a 32d'/	.	.
.	.	32f# 32d'/	.	.
.	.	32d'/ 32d	.	.
.	.	32d 32c'/	.	.
.	.	32dJJJ 32A'/)	.	.
=	=	=	=	=
2ryy	.	(32dLLL 32G\	.	.
.	.	32gg 32b\)	.	.
.	.	(32d 32G\	.	.
.	.	32bb 32b\)	.	.
.	.	(32d 32G\	.	.
.	.	32ddd 32dd\)	.	.
.	.	(32d 32G\	.	.
.	.	32gggJJJ 32gg\)	.	.
!	!	!LO:TX:t=P:problem:pod nutami + = pizzicato main gauche	!	!
!	!	!LO:TX:b:t=+	!	!
.	.	4gg 4b 4d 4G/	.	.
!!LO:LB:g=original
=32||	=32||	=32||	=32||	=32||
*M4/4	*	*M4/4	*	*
*met(c)	*	*met(c)	*	*
*xywh-21:91,1868,3616,819	*	*xywh-21:91,1868,3616,819	*	*
!	!	!LO:MO:mod=!null:null	!	!
*	*	*cue	*	*
*	*	*8va	*	*
!LO:TX:t=P:problem:kłopot z zapisem flażoletów - #403 flażolety (rozwiązanie tymczasowe)	!	!LO:TX:a:B:t=2. VAR.	!	!
!LO:TX:a:t=Sons harmoniques.	!	!LO:TX:a:t=Effet.	!	!
4.c 4.g 4.e/	.	4.ggg 4.bb\	.	.
8dd 8g/	.	8aaa 8ddd\	.	.
=33	=33	=33	=33	=33
*	*^	*	*	*
*Xtuplet	*	*	*Xtuplet	*	*
!LO:N:n=2:vis=2	!	!	!	!	!
(24ggyy 24rc 24rGyy/LL	.	.	(24gg\LL	.	.
!LO:N:n=2:vis=2	!	!	!	!	!
24dddyy 24rg 24rdyy/	.	.	24ddd\	.	.
!LO:N:n=2:vis=2	!	!	!	!	!
24bbbyy 24reeJJ 24rb/)	.	.	24bbb\JJ)	.	.
!LO:N:n=2:vis=2	!	!	!	!	!
(24bbbyy 24reeLL 24rb/	.	.	(24bbb\LL	.	.
!LO:N:n=2:vis=2	!	!	!	!	!
24dddyy 24rg 24rdyy/	.	.	24ddd\	.	.
!LO:N:n=2:vis=2	!	!	!	!	!
24ggyy 24rc 24rGyy/JJ)	.	.	24gg\JJ)	.	.
!LO:N:n=2:vis=2	!	!	!	!	!
(24ddyy 24rd 24rGyy/LL	.	3	(24dd\LL	.	.
!LO:N:n=2:vis=2	!	!	!	!	!
24fff#yy 24rf# 24rByy/	.	1	24fff#\	.	.
!LO:N:n=2:vis=2	!	!	!	!	!
24aaayy 24rdd 24rayy/JJ)	.	2	24aaa\JJ)	.	.
!LO:N:n=2:vis=2	!	!	!	!	!
(24aaayy 24rdd 24rayy/LL	.	.	(24aaa\LL	.	.
!LO:N:n=2:vis=2	!	!	!	!	!
24fff#yy 24rf# 24rByy/	.	.	24fff#\	.	.
!LO:N:n=2:vis=2	!	!	!	!	!
24ddyy 24rd 24rGyy/JJ)	.	.	24dd\JJ)	.	.
!LO:N:n=2:vis=2	!	!	!	!	!
(24ff#yy 24rf#LL 24rB/	4	1	(24ff#\LL	.	.
!LO:N:n=2:vis=2	!	!	!	!	!
24dddyy 24rg 24rdyy/	.	2	24ddd\	.	.
!LO:N:n=2:vis=2	!	!	!	!	!
24ccccnyy 24rffnJJ 24rcc/)	4	1	24cccc\JJ)	.	.
!LO:N:n=2:vis=2	!	!	!	!	!
(24ccccnyy 24rffLL 24rcc/	.	.	(24cccc\LL	.	.
!LO:N:n=2:vis=2	!	!	!	!	!
24dddyy 24rg 24rdyy/	.	.	24ddd\	.	.
!LO:N:n=2:vis=2	!	!	!	!	!
24ff#yy 24rf# 24rB/JJ)	.	.	24ff#\JJ)	.	.
!LO:N:n=2:vis=2	!	!	!	!	!
(24ggyy 24rc 24rGyy/LL	.	3	(24gg\LL	.	.
!LO:N:n=2:vis=2	!	!	!	!	!
24dddyy 24rg 24rdyy/	.	.	24ddd\	.	.
!LO:N:n=2:vis=2	!	!	!	!	!
24bbbyy 24reeJJ 24rb/)	.	.	24bbb\JJ)	.	.
!LO:N:n=2:vis=2	!	!	!	!	!
(24bbbyy 24reeLL 24rb/	.	.	(24bbb\LL	.	.
!LO:N:n=2:vis=2	!	!	!	!	!
24dddyy 24rg 24rdyy/	.	.	24ddd\	.	.
!LO:N:n=2:vis=2	!	!	!	!	!
24ggyy 24rc 24rGyy/JJ)	.	.	24gg\JJ)	.	.
!!LO:LB:g=original
=34	=34	=34	=34	=34	=34
*xywh-21:77,2651,3653,753	*	*	*	*xywh-21:77,2651,3653,753	*
!LO:N:n=2:vis=2	!	!	!	!	!
(24cccyy 24rc 24rA-X/LL	3	1	(24ccc\LL	.	.
!LO:N:n=2:vis=2	!	!	!	!	!
24dddyy 24rg 24rdyy/	.	4	24ddd\	.	.
!LO:N:n=2:vis=2	!	!	!	!	!
24aaayy 24rdd 24rayy/JJ)	.	4	24aaa\JJ)	.	.
!LO:N:n=2:vis=2	!	!	!	!	!
(24aaayy 24rdd 24rayy/LL	.	.	(24aaa\LL	.	.
!LO:N:n=2:vis=2	!	!	!	!	!
24dddyy 24rg 24rdyy/	.	.	24ddd\	.	.
!LO:N:n=2:vis=2	!	!	!	!	!
24cccyy 24rc 24rA-/JJ)	.	.	24ccc\JJ)	.	.
!LO:N:n=2:vis=2	!	!	!	!	!
(24bbyy 24rB 24rEyy/LL	.	2	(24bb\LL	.	.
!LO:N:n=2:vis=2	!	!	!	!	!
24dddyy 24rg 24rdyy/	.	3	24ddd\	.	.
!LO:N:n=2:vis=2	!	!	!	!	!
24gggyy 24rg 24re-X/JJ)	3	1	24ggg\JJ)	.	.
!LO:N:n=2:vis=2	!	!	!	!	!
(24gggyy 24rg 24re-X/LL	.	.	(24ggg\LL	.	.
!LO:N:n=2:vis=2	!	!	!	!	!
24dddyy 24rg 24rdyy/	.	.	24ddd\	.	.
!LO:N:n=2:vis=2	!	!	!	!	!
24bbyy 24rB 24rEyy/JJ)	.	.	24bb\JJ)	.	.
!LO:N:n=2:vis=2	!	!	!	!	!
(24cccyy 24rccLL 24rfn\	4	1	(24ccc\LL	.	.
!LO:N:n=2:vis=2	!	!	!	!	!
24gggyy 24rgg 24rcc\	4	1	24ggg\	.	.
!LO:N:n=2:vis=2	!	!	!	!	!
24eeeeyy 24raa 24reeyy\JJ)	2	.	24eeee\JJ)	.	.
!LO:N:n=2:vis=2	!	!	!	!	!
(24eeeeyy 24raa 24reeyy\LL	.	.	(24eeee\LL	.	.
!LO:N:n=2:vis=2	!	!	!	!	!
24gggyy 24rgg 24rcc\	.	.	24ggg\	.	.
!LO:N:n=2:vis=2	!	!	!	!	!
24cccyy 24rcc 24rf\JJ)	.	.	24ccc\JJ)	.	.
!LO:N:n=2:vis=2	!	!	!	!	!
(24bbyy 24rb 24re-\LL	4	1	(24bb\LL	.	.
!LO:N:n=2:vis=2	!	!	!	!	!
24gggyy 24rcc 24rg\	4	2	24ggg\	.	.
!LO:N:n=2:vis=2	!	!	!	!	!
24ddddyy 24rggJJ 24rdd\)	4	2	24dddd\JJ)	.	.
!LO:N:n=2:vis=2	!	!	!	!	!
(24ddddyy 24rgg 24rdd\LL	.	.	(24dddd\LL	.	.
!LO:N:n=2:vis=2	!	!	!	!	!
24gggyy 24rcc 24rg\	.	.	24ggg\	.	.
!LO:N:n=2:vis=2	!	!	!	!	!
24bbyy 24rb 24re-\JJ)	.	.	24bb\JJ)	.	.
=35	=35	=35	=35	=35	=35
!LO:N:n=2:vis=2	!	!	!	!	!
(24aayy 24ra 24rdyy\LL	3	.	(24aa\LL	.	.
!LO:N:n=2:vis=2	!	!	!	!	!
24dddyy 24rg 24rdyy/	2	.	24ddd\	.	.
!LO:N:n=2:vis=2	!	!	!	!	!
24ccccnyy 24rffnJJ 24rcc\)	4	1	24cccc\JJ)	.	.
!LO:N:n=2:vis=2	!	!	!	!	!
(24ccccyy 24rffLL 24rcc\	.	.	(24cccc\LL	.	.
!LO:N:n=2:vis=2	!	!	!	!	!
24dddyy 24rg 24rdyy/	.	.	24ddd\	.	.
!LO:N:n=2:vis=2	!	!	!	!	!
24aayy 24ra 24rdyy\JJ)	.	.	24aa\JJ)	.	.
!LO:N:n=2:vis=2	!	!	!	!	!
(24ggyy 24rc 24rGyy/LL	.	3	(24gg\LL	.	.
!LO:N:n=2:vis=2	!	!	!	!	!
24dddyy 24rg 24rdyy/	.	3	24ddd\	.	.
!LO:N:n=2:vis=2	!	!	!	!	!
24bbbyy 24reeJJ 24rb/)	4	1	24bbb\JJ)	.	.
!LO:N:n=2:vis=2	!	!	!	!	!
(24bbbyy 24reeLL 24rb/	.	.	(24bbb\LL	.	.
!LO:N:n=2:vis=2	!	!	!	!	!
24dddyy 24rg 24rdyy/	.	.	24ddd\	.	.
!LO:N:n=2:vis=2	!	!	!	!	!
24ggyy 24rc 24rGyy/JJ)	.	.	24gg\JJ)	.	.
!LO:N:n=2:vis=2	!	!	!	!	!
(24cccyy 24rccLL 24rfn\	4	1	(24ccc\LL	.	.
!LO:N:n=2:vis=2	!	!	!	!	!
24eeeyy 24ree 24rayy\	3	.	24eee\	.	.
!LO:N:n=2:vis=2	!	!	!	!	!
24aaayy 24rdd 24rayy\JJ)	2	.	24aaa\JJ)	.	.
!LO:N:n=2:vis=2	!	!	!	!	!
(24aaayy 24rdd 24rayy\LL	.	.	(24aaa\LL	.	.
!LO:N:n=2:vis=2	!	!	!	!	!
24eeeyy 24ree 24rayy\	.	.	24eee\	.	.
!LO:N:n=2:vis=2	!	!	!	!	!
24cccyy 24rccJJ 24rf\)	.	.	24ccc\JJ)	.	.
!LO:N:n=2:vis=2	!	!	!	!	!
(24ccc#yy 24rcc#XLL 24rf#X\	4	1	(24ccc#X\LL	.	.
!LO:N:n=2:vis=2	!	!	!	!	!
24eeeyy 24ree 24rayy\	3	.	24eee\	.	.
!LO:N:n=2:vis=2	!	!	!	!	!
24bbbyy 24rbb 24reeyy\JJ)	3	.	24bbb\JJ)	.	.
!LO:N:n=2:vis=2	!	!	!	!	!
(24bbbyy 24rbb 24reeyy\LL	3	.	(24bbb\LL	.	.
!LO:N:n=2:vis=2	!	!	!	!	!
24gggyy 24rgg 24rccn\	4	1	24ggg\	.	.
!LO:N:n=2:vis=2	!	!	!	!	!
24ccc#yy 24rcc#XJJ 24rf#\)	4	1	24ccc#\JJ)	.	.
!!LO:LB:g=original
=36	=36	=36	=36	=36	=36
*xywh-21:113,3375,3631,717	*	*	*xywh-21:113,3375,3631,717	*	*
!LO:N:n=2:vis=2	!	!	!	!	!
8dddyy 8rg 8rdyy\L	.	.	8ddd\L	.	.
!LO:N:n=2:vis=2	!	!	!	!	!
8ddddyy 8rggJ 8rdd\	.	.	8dddd\J	.	.
!LO:TX:t=P:problem:kłopot z zapisem flażoletów - #403 flażolety (rozwiązanie tymczasowe)	!	!	!	!	!
16aaLL 16ffn 16cc\	2	4 1	16eeeeLL 16cccc\	.	.
16gg 16dd 16b 16g\	4	1 3 1	16dddd 16bbb\	.	.
16ff 16cc 16a 16fn\	4	1 3 1	16cccc 16aaa\	.	.
16eeJJ 16b 16g 16e-X\	4	2 3 1	16bbbJJ 16ggg\	.	.
16ddLL 16f/	3	2	16aaaLL 16fff#\	.	.
16cc 16g 16en 16c/	4	1 3 1	16ggg 16eee\	.	.
16bn 16d 16B-X/	4	3 1	16fff# 16ddd\	.	.
16eeJJ 16cc 16fn/	4 3	1	16eeeJJ 16ccc\	.	.
16gLL 16Bn/	3	2	16dddLL 16bb/	.	.
16a 16c 16A-X/	4	3 1	16ccc 16aa/	.	.
16b 16e 16c/	4	1 2	16bb 16gg/	.	.
16aJJ 16d/	3	3	16aaJJ 16dd/	.	.
*	*v	*v	*	*	*
=37	=37	=37	=37	=37
!LO:N:n=2:vis=2	!	!	!	!
(24ggyy 24rc 24rGyy/LL	.	(24gg\LL	.	.
!LO:N:n=2:vis=2	!	!	!	!
24dddyy 24rg 24rdyy/	.	24ddd\	.	.
!LO:N:n=2:vis=2	!	!	!	!
24bbbyy 24reeJJ 24rb/)	.	24bbb\JJ)	.	.
!LO:N:n=2:vis=2	!	!	!	!
(24bbbyy 24reeLL 24rb/	.	(24bbb\LL	.	.
!LO:N:n=2:vis=2	!	!	!	!
24dddyy 24rg 24rdyy/	.	24ddd\	.	.
!LO:N:n=2:vis=2	!	!	!	!
24ggyy 24rc 24rGyy/JJ)	.	24gg\JJ)	.	.
!LO:N:n=2:vis=2	!	!	!	!
(24ddyy 24rd 24rGyy/LL	.	(24dd\LL	.	.
!LO:N:n=2:vis=2	!	!	!	!
24fff#yy 24rf# 24rByy/	.	24fff#\	.	.
!LO:N:n=2:vis=2	!	!	!	!
24aaayy 24rdd 24rayy/JJ)	.	24aaa\JJ)	.	.
!LO:N:n=2:vis=2	!	!	!	!
(24aaayy 24rdd 24rayy/LL	.	(24aaa\LL	.	.
!LO:N:n=2:vis=2	!	!	!	!
24fff#yy 24rf# 24rByy/	.	24fff#\	.	.
!LO:N:n=2:vis=2	!	!	!	!
24ddyy 24rd 24rGyy/JJ)	.	24dd\JJ)	.	.
!LO:N:n=2:vis=2	!	!	!	!
(24ff#yy 24rf#LL 24rB/	.	(24ff#\LL	.	.
!LO:N:n=2:vis=2	!	!	!	!
24dddyy 24rg 24rdyy/	.	24ddd\	.	.
!LO:N:n=2:vis=2	!	!	!	!
24ccccnyy 24rffnJJ 24rcc/)	.	24cccc\JJ)	.	.
!LO:N:n=2:vis=2	!	!	!	!
(24ccccnyy 24rffLL 24rcc/	.	(24cccc\LL	.	.
!LO:N:n=2:vis=2	!	!	!	!
24dddyy 24rg 24rdyy/	.	24ddd\	.	.
!LO:N:n=2:vis=2	!	!	!	!
24ff#yy 24rf# 24rB/JJ)	.	24ff#\JJ)	.	.
!LO:N:n=2:vis=2	!	!	!	!
(24ggyy 24rc 24rGyy/LL	.	(24gg\LL	.	.
!LO:N:n=2:vis=2	!	!	!	!
24dddyy 24rg 24rdyy/	.	24ddd\	.	.
!LO:N:n=2:vis=2	!	!	!	!
24bbbyy 24reeJJ 24rb/)	.	24bbb\JJ)	.	.
!LO:N:n=2:vis=2	!	!	!	!
(24bbbyy 24reeLL 24rb/	.	(24bbb\LL	.	.
!LO:N:n=2:vis=2	!	!	!	!
24dddyy 24rg 24rdyy/	.	24ddd\	.	.
!LO:N:n=2:vis=2	!	!	!	!
24ggyy 24rc 24rGyy/JJ)	.	24gg\JJ)	.	.
!!LO:LB:g=original
=38	=38	=38	=38	=38
*xywh-21:120,4064,3573,934	*	*xywh-21:120,4064,3573,934	*	*
!LO:N:n=2:vis=2	!	!	!	!
(24cccyy 24rc 24rA-X/LL	.	(24ccc\LL	.	.
!LO:N:n=2:vis=2	!	!	!	!
24dddyy 24rg 24rdyy/	.	24ddd\	.	.
!LO:N:n=2:vis=2	!	!	!	!
24aaayy 24rdd 24rayy/JJ)	.	24aaa\JJ)	.	.
!LO:N:n=2:vis=2	!	!	!	!
(24aaayy 24rdd 24rayy/LL	.	(24aaa\LL	.	.
!LO:N:n=2:vis=2	!	!	!	!
24dddyy 24rg 24rdyy/	.	24ddd\	.	.
!LO:N:n=2:vis=2	!	!	!	!
24cccyy 24rc 24rA-/JJ)	.	24ccc\JJ)	.	.
!LO:N:n=2:vis=2	!	!	!	!
(24bbyy 24rB 24rEyy/LL	.	(24bb\LL	.	.
!LO:N:n=2:vis=2	!	!	!	!
24dddyy 24rg 24rdyy/	.	24ddd\	.	.
!LO:N:n=2:vis=2	!	!	!	!
24gggyy 24rg 24re-X/JJ)	.	24ggg\JJ)	.	.
!LO:N:n=2:vis=2	!	!	!	!
(24gggyy 24rg 24re-X/LL	.	(24ggg\LL	.	.
!LO:N:n=2:vis=2	!	!	!	!
24dddyy 24rg 24rdyy/	.	24ddd\	.	.
!LO:N:n=2:vis=2	!	!	!	!
24bbyy 24rB 24rEyy/JJ)	.	24bb\JJ)	.	.
!LO:N:n=2:vis=2	!	!	!	!
(24cccyy 24rccLL 24rfn\	.	(24ccc\LL	.	.
!LO:N:n=2:vis=2	!	!	!	!
24gggyy 24rgg 24rcc\	.	24ggg\	.	.
!LO:N:n=2:vis=2	!	!	!	!
24eeeeyy 24raa 24reeyy\JJ)	.	24eeee\JJ)	.	.
!LO:N:n=2:vis=2	!	!	!	!
(24eeeeyy 24raa 24reeyy\LL	.	(24eeee\LL	.	.
!LO:N:n=2:vis=2	!	!	!	!
24gggyy 24rgg 24rcc\	.	24ggg\	.	.
!LO:N:n=2:vis=2	!	!	!	!
24cccyy 24rcc 24rf\JJ)	.	24ccc\JJ)	.	.
!LO:N:n=2:vis=2	!	!	!	!
(24bbyy 24rb 24re-\LL	.	(24bb\LL	.	.
!LO:N:n=2:vis=2	!	!	!	!
24gggyy 24rcc 24rg\	.	24ggg\	.	.
!LO:N:n=2:vis=2	!	!	!	!
24ddddyy 24rggJJ 24rdd\)	.	24dddd\JJ)	.	.
!LO:N:n=2:vis=2	!	!	!	!
(24ddddyy 24rgg 24rdd\LL	.	(24dddd\LL	.	.
!LO:N:n=2:vis=2	!	!	!	!
24gggyy 24rcc 24rg\	.	24ggg\	.	.
!LO:N:n=2:vis=2	!	!	!	!
24bbyy 24rb 24re-\JJ)	.	24bb\JJ)	.	.
=39	=39	=39	=39	=39
!LO:N:n=2:vis=2	!	!	!	!
(24aayy 24ra 24rdyy\LL	.	(24aa\LL	.	.
!LO:N:n=2:vis=2	!	!	!	!
24dddyy 24rg 24rdyy/	.	24ddd\	.	.
!LO:N:n=2:vis=2	!	!	!	!
24ccccnyy 24rffnJJ 24rcc\)	.	24cccc\JJ)	.	.
!LO:N:n=2:vis=2	!	!	!	!
(24ccccyy 24rffLL 24rcc\	.	(24cccc\LL	.	.
!LO:N:n=2:vis=2	!	!	!	!
24dddyy 24rg 24rdyy/	.	24ddd\	.	.
!LO:N:n=2:vis=2	!	!	!	!
24aayy 24ra 24rdyy\JJ)	.	24aa\JJ)	.	.
!LO:N:n=2:vis=2	!	!	!	!
(24ggyy 24rc 24rGyy/LL	.	(24gg\LL	.	.
!LO:N:n=2:vis=2	!	!	!	!
24dddyy 24rg 24rdyy/	.	24ddd\	.	.
!LO:N:n=2:vis=2	!	!	!	!
24bbbyy 24reeJJ 24rb/)	.	24bbb\JJ)	.	.
!LO:N:n=2:vis=2	!	!	!	!
(24bbbyy 24reeLL 24rb/	.	(24bbb\LL	.	.
!LO:N:n=2:vis=2	!	!	!	!
24dddyy 24rg 24rdyy/	.	24ddd\	.	.
!LO:N:n=2:vis=2	!	!	!	!
24ggyy 24rc 24rGyy/JJ)	.	24gg\JJ)	.	.
!LO:N:n=2:vis=2	!	!	!	!
(24cccyy 24rccLL 24rfn\	.	(24ccc\LL	.	.
!LO:N:n=2:vis=2	!	!	!	!
24eeeyy 24ree 24rayy\	.	24eee\	.	.
!LO:N:n=2:vis=2	!	!	!	!
24aaayy 24rdd 24rayy\JJ)	.	24aaa\JJ)	.	.
!LO:N:n=2:vis=2	!	!	!	!
(24aaayy 24rdd 24rayy\LL	.	(24aaa\LL	.	.
!LO:N:n=2:vis=2	!	!	!	!
24eeeyy 24ree 24rayy\	.	24eee\	.	.
!LO:N:n=2:vis=2	!	!	!	!
24cccyy 24rccJJ 24rf\)	.	24ccc\JJ)	.	.
!LO:N:n=2:vis=2	!	!	!	!
(24ccc#yy 24rcc#XLL 24rf#X\	.	(24ccc#X\LL	.	.
!LO:N:n=2:vis=2	!	!	!	!
24eeeyy 24ree 24rayy\	.	24eee\	.	.
!LO:N:n=2:vis=2	!	!	!	!
24bbbyy 24rbb 24reeyy\JJ)	.	24bbb\JJ)	.	.
!LO:N:n=2:vis=2	!	!	!	!
(24bbbyy 24rbb 24reeyy\LL	.	(24bbb\LL	.	.
!LO:N:n=2:vis=2	!	!	!	!
24gggyy 24rgg 24rccn\	.	24ggg\	.	.
!LO:N:n=2:vis=2	!	!	!	!
24ccc#yy 24rcc#XJJ 24rf#\)	.	24ccc#\JJ)	.	.
!!LO:PB:g=original
=40	=40	=40	=40	=40
*	*^	*	*	*
*xywh-22:429,363,3692,983	*	*xywh-22:429,363,3692,983	*	*	*
!LO:N:n=2:vis=2	!	!	!	!	!
16dddyy 16rg` 16rdyy/LL	.	.	16ddd\LL	.	.
!LO:TX:t=P:problem:kłopot z zapisem flażoletów - #403 flażolety (rozwiązanie tymczasowe)	!	!	!	!	!
(32g 32f#L 32B/	4 2	1	(32dddL 32ff#\	.	.
32f#JJJ 32d 32A/)	4 2	1	32fff#JJJ 32aa\)	.	.
(32f#LLL 32d 32A/	.	.	(32fff#LLL 32aa\	.	.
32dd 32f#/)	3	2	32aaa 32fff#\)	.	.
(32dd 32f#/	4	1 3	(32aaa 32fff#\	.	.
32ggJJJ 32dd 32b/)	.	.	32ddddJJJ 32fff#\)	.	.
4gg 4dd 4b;\	.	.	4dddd 4fff#;\	.	.
!LO:TX:b:i:t=du talon.	!	!	!	!	!
!LO:N:n=2:vis=2	!	!	!	!	!
24aaayy 24rddLL 24ra`/	.	.	24aaa\LL	.	.
!LO:N:n=2:vis=2	!	!	!	!	!
24dddyy 24rg 24rd`/	.	.	24ddd\	.	.
!LO:N:n=2:vis=2	!	!	!	!	!
24eeeyy 24ra 24re`/J	.	.	24eee\JJ	.	.
!LO:N:n=2:vis=2	!	!	!	!	!
24fff#yy 24rb 24rf#`/L	.	.	24fff#\LL	.	.
!LO:N:n=2:vis=2	!	!	!	!	!
24gggyy 24rcc 24rg`/	.	.	24ggg\	.	.
!LO:N:n=2:vis=2	!	!	!	!	!
24aaayy 24rddJJ 24ra`/	.	.	24aaa\JJ	.	.
!LO:N:n=2:vis=2	!	!	!	!	!
24bbbyy 24reeLL 24rb`\	.	.	24bbb\LL	.	.
!LO:N:n=2:vis=2	!	!	!	!	!
24ddddyy 24rgg 24rdd`\	.	.	24dddd\	.	.
!LO:N:n=2:vis=2	!	!	!	!	!
24eeeeyy 24raa 24ree`\J	.	.	24eeee\JJ	.	.
!LO:N:n=2:vis=2	!	!	!	!	!
24ffff#yy 24rbb 24rff#`\L	.	.	24ffff#\LL	.	.
!LO:N:n=2:vis=2	!	!	!	!	!
24ggggyy 24rccc 24rgg`\	.	.	24gggg\	.	.
!LO:N:n=2:vis=2	!	!	!	!	!
24bbbyy 24reeJJ 24rb`\	.	.	24bbb\JJ	.	.
*	*v	*v	*	*	*
=41	=41	=41	=41	=41
!LO:N:n=2:vis=2	!	!	!	!
24aaayy 24rddLL 24ra`\	.	24aaa\LL	.	.
!LO:N:n=2:vis=2	!	!	!	!
24bbbyy 24ree 24rb`\	.	24bbb\	.	.
!LO:N:n=2:vis=2	!	!	!	!
24cccc#yy 24rff#JJ 24rcc#X`\	.	24cccc#X\JJ	.	.
!LO:N:n=2:vis=2	!	!	!	!
24ddddyy 24rggLL 24rdd`\	.	24dddd\LL	.	.
!LO:N:n=2:vis=2	!	!	!	!
24aaayy 24rdd 24ra`\	.	24aaa\	.	.
!LO:N:n=2:vis=2	!	!	!	!
24fff#yy 24rbJJ 24rf#`\	.	24fff#\JJ	.	.
!LO:N:n=2:vis=2	!	!LO:TX:a:t=P:problem:mixed beam	!	!
(24dddyy 24rg`u 24rdyy/LL	.	24ddd\LL	.	.
!LO:N:n=2:vis=2	!	!	!	!
24ddyy 24rd` 24rGyy/)	.	24dd/	.	.
!LO:N:n=2:vis=2	!	!	!	!
24fff#yy 24rb` 24rf#yy/JJ	.	24fff#\JJ	.	.
!LO:N:n=2:vis=2	!	!LO:TX:a:t=P:problem:mixed beam	!	!
24ddyy 24rd` 24rGyy/LL	.	24dd/LL	.	.
!LO:N:n=2:vis=2	!	!	!	!
24aaayy 24rdd` 24rayy/	.	24aaa\	.	.
!LO:N:n=2:vis=2	!	!	!	!
24ddyy 24rd` 24rGyy/JJ	.	24dd/JJ	.	.
!LO:N:n=2:vis=2	!	!	!	!
24ddddyy 24rggLL 24rdd`\	.	24dddd\LL	.	.
!LO:N:n=2:vis=2	!	!	!	!
24dddyy 24rg 24rd`\	.	24ddd\	.	.
!LO:N:n=2:vis=2	!	!	!	!
24eeeyy 24ra 24re`\J	.	24eee\JJ	.	.
!LO:N:n=2:vis=2	!	!	!	!
24fff#yy 24rb 24rf#`\L	.	24fff#\LL	.	.
!LO:N:n=2:vis=2	!	!	!	!
24gggyy 24rcc# 24rg`\	.	24ggg\	.	.
!LO:N:n=2:vis=2	!	!	!	!
24aaayy 24rddJJ 24ra`\	.	24aaa\JJ	.	.
!LO:N:n=2:vis=2	!	!	!	!
24bbbyy 24reeLL 24rb`\	.	24bbb\LL	.	.
!LO:N:n=2:vis=2	!	!	!	!
24ddddyy 24rgg 24rdd`\	.	24dddd\	.	.
!LO:N:n=2:vis=2	!	!	!	!
24eeeeyy 24raaJJ 24ree`\	.	24eeee\JJ	.	.
!LO:N:n=2:vis=2	!	!	!	!
24ffff#yy 24rbbLL 24rff#`\	.	24ffff#\LL	.	.
!LO:N:n=2:vis=2	!	!	!	!
24ggggyy 24rcccny 24rgg`\	.	24gggg\	.	.
!LO:N:n=2:vis=2	!	!	!	!
24bbbbyy 24reeeJJ 24rbb`\	.	24bbbb\JJ	.	.
!!LO:LB:g=original
=42	=42	=42	=42	=42
*xywh-22:385,1280,3670,764	*	*xywh-22:385,1280,3670,764	*	*
!LO:N:n=2:vis=2	!	!	!	!
24aaaayy 24rdddLL 24raa`\	.	24aaaa\LL	.	.
!LO:N:n=2:vis=2	!	!	!	!
24ffff#yy 24rbb 24rff#`\	.	24ffff#\	.	.
!LO:N:n=2:vis=2	!	!	!	!
24ddddyy 24rggJJ 24rdd`\	.	24dddd\JJ	.	.
!LO:N:n=2:vis=2	!	!	!	!
24aaayy 24rddLL 24ra`/	.	24aaa\LL	.	.
!LO:N:n=2:vis=2	!	!	!	!
24fff#yy 24rf#` 24rByy/	.	24fff#\	.	.
!LO:N:n=2:vis=2	!	!	!	!
24aaayy 24rdd` 24rayy/JJ	.	24aaa\JJ	.	.
!LO:N:n=2:vis=2	!	!LO:TX:a:t=P:problem:mixed beam	!	!
(24dddyy 24rg` 24rdyy/LL	.	24ddd\LL	.	.
!LO:N:n=2:vis=2	!	!	!	!
24ddyy 24rd` 24rGyy/)	.	24dd/	.	.
!LO:N:n=2:vis=2	!	!	!	!
24fff#yy 24rb` 24rf#yy/JJ	.	24fff#\JJ	.	.
!LO:N:n=2:vis=2	!	!LO:TX:a:t=P:problem:mixed beam	!	!
24ddyy 24rd` 24rGyy/LL	.	24dd/LL	.	.
!LO:N:n=2:vis=2	!	!	!	!
24aaayy 24rdd` 24rayy/	.	24aaa\	.	.
!LO:N:n=2:vis=2	!	!	!	!
24ddyy 24rd` 24rGyy/JJ	.	24dd/JJ	.	.
!LO:N:n=2:vis=2	!	!	!	!
24ddddyy 24rggLL 24rdd`/	.	24dddd\LL	.	.
!LO:N:n=2:vis=2	!	!	!	!
(24bbyy 24rB'u< 24rEyy/	.	24bb\	.	.
!LO:N:n=2:vis=2	!	!	!	!
24dddyy 24rg' 24rdyy/J	.	24ddd\J	.	.
!LO:N:n=2:vis=2	!	!	!	!
24gggyy 24rg 24re-X'/L	.	24ggg\L	.	.
!LO:N:n=2:vis=2	!	!	!	!
24bbbyy 24ree 24rb'/	.	24bbb\	.	.
!LO:N:n=2:vis=2	!	!	!	!
24ddddyy 24rggJJ 24rdd'/)	.	24dddd\JJ	.	.
!LO:N:n=2:vis=2	!	!	!	!
24aaayy 24rffnLL 24rcc`/	.	24aaa\LL	.	.
!LO:N:n=2:vis=2	!	!	!	!
(24aayy 24rd 24rA'u</	.	24aa\	.	.
!LO:N:n=2:vis=2	!	!	!	!
24dddyy 24rg' 24rdyy/J	.	24ddd\J	.	.
!LO:N:n=2:vis=2	!	!	!	!
24fff#yy 24rf#' 24rByy//L	.	24fff#\L	.	.
!LO:N:n=2:vis=2	!	!	!	!
24aaayy 24rdd' 24rayy/	.	24aaa\	.	.
!LO:N:n=2:vis=2	!	!	!	!
24ccccyy 24rffJJ 24rcc'/)	.	24cccc\JJ	.	.
!!LO:LB:g=original
=43	=43	=43	=43	=43
*xywh-22:429,1936,3590,815	*	*xywh-22:429,1936,3590,815	*	*
!LO:N:n=2:vis=2	!	!	!	!
24bbbyy 24reeLL 24rb`/	.	24bbb\LL	.	.
!LO:N:n=2:vis=2	!	!	!	!
(24ggyy 24rc' 24rGyy/	.	24gg\	.	.
!LO:N:n=2:vis=2	!	!	!	!
24bbyy 24rB' 24rEyy/JJ	.	24bb\	.	.
!LO:N:n=2:vis=2	!	!	!	!
24dddyy 24rg' 24rdyy/LL	.	24ddd\	.	.
!LO:N:n=2:vis=2	!	!	!	!
24gggyy 24rg 24re-X'/	.	24ggg\	.	.
!LO:N:n=2:vis=2	!	!	!	!
24bbbyy 24reeJJ 24rb'/	.	24bbb\JJ	.	.
!LO:N:n=2:vis=2	!	!	!	!
24ddddyy 24rggLL 24rdd'\)	.	24dddd\LL	.	.
!LO:N:n=2:vis=2	!	!	!	!
24bbbyy 24ree 24rb'\	.	24bbb\	.	.
!LO:N:n=2:vis=2	!	!	!	!
24gggyy 24rcc 24rg'\	.	24ggg\	.	.
!LO:N:n=2:vis=2	!	!	!	!
24dddyy 24rg' 24rdyy\	.	24ddd\	.	.
!LO:N:n=2:vis=2	!	!	!	!
24bbyy 24rB' 24rEyy\	.	24bb\	.	.
!LO:N:n=2:vis=2	!	!	!	!
24ggyy 24rc' 24rGyy\JJ	.	24gg\JJ	.	.
!LO:N:n=2:vis=2	!	!	!	!
(32aayy 32rdLLL 32rA/	.	32aa\LLL	.	.
!LO:N:n=2:vis=2	!	!	!	!
32bbnyy 32ren 32rB/)	.	32bb\	.	.
!LO:N:n=2:vis=2	!	!	!	!
32ccc#yy 32rf# 32rc#X`/	.	32ccc#X\	.	.
!LO:N:n=2:vis=2	!	!	!	!
32dddyy 32rg 32rd`/	.	32ddd\	.	.
!LO:N:n=2:vis=2	!	!	!	!
32eeeyy 32ra 32re`/	.	32eee\	.	.
!LO:N:n=2:vis=2	!	!	!	!
32fff#yy 32rb 32rf#`/	.	32fff#\	.	.
!LO:N:n=2:vis=2	!	!	!	!
32gggyy 32rccn 32rg`/	.	32ggg\	.	.
!LO:N:n=2:vis=2	!	!	!	!
32ggg#Xyy 32rcc#XJJJ 32rg#X`/	.	32ggg#X\JJJ	.	.
!LO:N:n=2:vis=2	!	!	!	!
32aaayy 32rddLLL 32ra`\	.	32aaa\LLL	.	.
!LO:N:n=2:vis=2	!	!	!	!
32bbbyy 32ree 32rb`\	.	32bbb\	.	.
!LO:N:n=2:vis=2	!	!	!	!
32cccc#yy 32rff# 32rcc#X`\	.	32cccc#X\	.	.
!LO:N:n=2:vis=2	!	!	!	!
32ddddyy 32rggn 32rdd`\	.	32dddd\	.	.
!LO:N:n=2:vis=2	!	!	!	!
32eeeeyy 32raa 32ree`\	.	32eeee\	.	.
!LO:N:n=2:vis=2	!	!	!	!
32ffff#yy 32rbb 32rff#`\	.	32ffff#\	.	.
!LO:TX:t=P:problem:fermata - błąd wyświetlenia	!	!	!	!
!LO:N:n=2:vis=2	!	!	!	!
(32ggggnyy 32rcccn; 32rgg\	.	32gggg;\	.	.
!LO:N:n=2:vis=2	!	!	!	!
32cccc#yy 32rff#JJJ 32rcc#X\)	.	32cccc#\JJJ	.	.
=44	=44	=44	=44	=44
*	*^	*	*	*
!LO:N:n=2:vis=2	!	!	!	!	!
16ddddyy 16rggLL 16rdd\	.	.	16dddd\LL	.	.
16ggJJ 16dd 16b\	.	.	16dddd 16fff#\	.	.
16ddLL 16b/	.	.	16aaa 16fff#\	.	.
16f#JJ 16d 16A/	.	.	16fff#JJ 16aa\	.	.
4g 4f# 4B;/	.	.	4ddd 4ff#;/	.	.
!LO:MO:mod=!LO&colon;TX&colon;t=piu lento	!	!	!	!	!
!LO:TX:b:t=piu lento	!	!	!	!	!
!LO:N:n=2:vis=2	!	!	!	!	!
(32bbyy 32rB' 32rEyy/LLL	.	.	32bb\LLL	.	.
!LO:N:n=2:vis=2	!	!	!	!	!
32gggyy 32rg 32re-X'/	.	.	32ggg\	.	.
!LO:N:n=2:vis=2	!	!	!	!	!
32ddddyy 32rdd 32rb-X'/	.	.	32dddd\	.	.
!LO:N:n=2:vis=2	!	!	!	!	!
32ggggyy 32rcccJJJ 32rgg'/)	.	.	32gggg\JJJ	.	.
!LO:N:n=2:vis=2	!	!	!	!	!
(32ggggyy 32rcccLLL 32rgg'/	.	.	32gggg\LLL	.	.
!LO:N:n=2:vis=2	!	!	!	!	!
32ddddyy 32rdd 32rb-'/	.	.	32dddd\	.	.
!LO:N:n=2:vis=2	!	!	!	!	!
32gggyy 32rg 32re-'/	.	.	32ggg\	.	.
!LO:N:n=2:vis=2	!	!	!	!	!
32bbyy 32rB' 32rEyy/JJJ)	.	.	32bb\JJJ	.	.
!LO:N:n=2:vis=2	!	!	!	!	!
(32bbyy 32rB' 32rEyy/LLL	.	2	32bb\LLL	.	.
!LO:N:n=2:vis=2	!	!	!	!	!
32gggyy 32rg 32re-'/	3	1	32ggg\	.	.
!LO:N:n=2:vis=2	!	!	!	!	!
32ddddyy 32rdd 32rb-'/	3	1	32dddd\	.	.
!LO:N:n=2:vis=2	!	!	!	!	!
32ggggyy 32rcccJJJ 32rgg'/)	4	2	32gggg\JJJ	.	.
!LO:N:n=2:vis=2	!	!	!	!	!
(32ffff#yy 32rbbnLLL 32rff#X'/	4	2	32ffff#X\LLL	.	.
!LO:N:n=2:vis=2	!	!	!	!	!
32ddddyy 32rdd 32rb-X'/	3	1	32dddd\	.	.
!LO:N:n=2:vis=2	!	!	!	!	!
32gggyy 32rg 32re-'/	3	1	32ggg\	.	.
!LO:N:n=2:vis=2	!	!	!	!	!
32bbyy 32rB' 32rEyy/JJJ)	.	2	32bb\JJJ	.	.
*	*v	*v	*	*	*
!!LO:LB:g=original
=45	=45	=45	=45	=45
*xywh-22:451,2693,3532,772	*	*xywh-22:451,2693,3532,772	*	*
!LO:N:n=2:vis=2	!	!	!	!
(32cccyy 32rcLLL 32rA-X'/	.	32ccc\LLL	.	.
!LO:N:n=2:vis=2	!	!	!	!
32gggyy 32rg 32re-X'/	.	32ggg\	.	.
!LO:N:n=2:vis=2	!	!	!	!
32ccccnyy 32rffn 32rcc'/	.	32cccc\	.	.
!LO:N:n=2:vis=2	!	!	!	!
32ffff#yy 32rbbJJJ 32rff#X'/)	.	32ffff#\JJJ	.	.
!LO:N:n=2:vis=2	!	!	!	!
(32eeeenyy 32raanLLL 32reen'/	.	32eeee\LLL	.	.
!LO:N:n=2:vis=2	!	!	!	!
32ccccnyy 32rffn 32rcc'/	.	32cccc\	.	.
!LO:N:n=2:vis=2	!	!	!	!
32gggyy 32rg 32re-X'/	.	32ggg\	.	.
!LO:N:n=2:vis=2	!	!	!	!
32cccyy 32cJJJ 32A-X'/)	.	32ccc\JJJ	.	.
!LO:N:n=2:vis=2	!	!	!	!
(32bbyy 32rBn' 32rEyy/LLL	.	32bb\LLL	.	.
!LO:N:n=2:vis=2	!	!	!	!
32dddyy 32rg' 32rdyy/	.	32ddd\	.	.
!LO:N:n=2:vis=2	!	!	!	!
32gggyy 32rg 32re-'/	.	32ggg\	.	.
!LO:N:n=2:vis=2	!	!	!	!
32ddddyy 32rddJJJ 32rb-X'/)	.	32dddd\JJJ	.	.
!LO:N:n=2:vis=2	!	!	!	!
(32ddddyy 32rddLLL 32rb-'/	.	32dddd\LLL	.	.
!LO:N:n=2:vis=2	!	!	!	!
32gggyy 32rg 32re-'/	.	32ggg\	.	.
!LO:N:n=2:vis=2	!	!	!	!
32dddyy 32rg' 32rdyy/	.	32ddd\	.	.
!LO:N:n=2:vis=2	!	!	!	!
32bbyy 32rB' 32rEyy/JJJ)	.	32bb\JJJ	.	.
!LO:N:n=2:vis=2	!	!	!	!
(32cccyy 32rcLLL 32rA-X'/	.	32ccc\LLL	.	.
!LO:N:n=2:vis=2	!	!	!	!
32gggyy 32rg 32re-'/	.	32ggg\	.	.
!LO:N:n=2:vis=2	!	!	!	!
32ccccyy 32rff 32rcc'/	.	32cccc\	.	.
!LO:N:n=2:vis=2	!	!	!	!
32eeeeyy 32raan' 32reeyy/JJJ)	.	32eeee\JJJ	.	.
!LO:N:n=2:vis=2	!	!	!	!
(32eeeeyy 32raa' 32reeyy/LLL	.	32eeee\LLL	.	.
!LO:N:n=2:vis=2	!	!	!	!
32ccccyy 32rff 32rcc'/	.	32cccc\	.	.
!LO:N:n=2:vis=2	!	!	!	!
32gggyy 32rg 32re-'/	.	32ggg\	.	.
!LO:N:n=2:vis=2	!	!	!	!
32cccyy 32rcJJJ 32rA-X'/)	.	32ccc\JJJ	.	.
!LO:N:n=2:vis=2	!	!	!	!
(32cccyy 32rcLLL 32rA-'/	.	32ccc\LLL	.	.
!LO:N:n=2:vis=2	!	!	!	!
32gggyy 32rg 32re-'/	.	32ggg\	.	.
!LO:N:n=2:vis=2	!	!	!	!
32ccccyy 32rff 32rcc'/	.	32cccc\	.	.
!LO:N:n=2:vis=2	!	!	!	!
32eeeeyy 32raan' 32reeyy/JJJ)	.	32eeee\JJJ	.	.
!LO:N:n=2:vis=2	!	!	!	!
(32ddddyy 32rddLLL 32rb-X'/	.	32dddd\LLL	.	.
!LO:N:n=2:vis=2	!	!	!	!
32gggyy 32rg 32re-'/	.	32ggg\	.	.
!LO:N:n=2:vis=2	!	!	!	!
32dddyy 32rg' 32rdyy/	.	32ddd\	.	.
!LO:N:n=2:vis=2	!	!	!	!
32bbyy 32rBn' 32rEyy/JJJ)	.	32bb\JJJ	.	.
!!LO:LB:g=original
=46	=46	=46	=46	=46
*	*^	*	*	*
*xywh-22:429,3414,3576,735	*	*	*xywh-22:429,3414,3576,735	*	*
!LO:N:n=2:vis=2	!	!	!	!	!
(32aayy 32rdLLL 32rAn'/	.	.	32aa\LLL	.	.
!LO:N:n=2:vis=2	!	!	!	!	!
32dddyy 32rg' 32rdyy/	.	.	32ddd\	.	.
!LO:N:n=2:vis=2	!	!	!	!	!
32fff#yy 32rf#' 32rByy/	.	.	32fff#\	.	.
!LO:N:n=2:vis=2	!	!	!	!	!
32ddddyy 32rddJJJ 32rb-X'/)	.	.	32dddd\JJJ	.	.
!LO:N:n=2:vis=2	!	!	!	!	!
(32ccccnyy 32rffnLLL 32rcc'/	4	2	32cccc\LLL	.	.
!LO:N:n=2:vis=2	!	!	!	!	!
32fff#yy 32rf#' 32rByy/	.	3	32fff#\	.	.
!LO:N:n=2:vis=2	!	!	!	!	!
32dddyy 32rg' 32rdyy/	.	3	32ddd\	.	.
!LO:N:n=2:vis=2	!	!	!	!	!
32cccyy 32rcJJJ 32rA-X'/)	.	.	32ccc\JJJ	.	.
!LO:N:n=2:vis=2	!	!	!	!	!
(32bbyy 32rBn' 32rFyy/LLL	.	.	32bb\LLL	.	.
!LO:N:n=2:vis=2	!	!	!	!	!
32dddyy 32rg' 32rdyy/	.	.	32ddd\	.	.
!LO:N:n=2:vis=2	!	!	!	!	!
32gggyy 32rg 32re-X'/	.	.	32ggg\	.	.
!LO:N:n=2:vis=2	!	!	!	!	!
32eeenyy 32reenJJJ 32rbn'/)	4	2	32bbb\JJJ	.	.
!LO:N:n=2:vis=2	!	!	!	!	!
(32bbbnyy 32reeLLL 32rb'/	.	.	32bbb\LLL	.	.
!LO:N:n=2:vis=2	!	!	!	!	!
32gggyy 32rg 32re-X'/	.	.	32ggg\	.	.
!LO:N:n=2:vis=2	!	!	!	!	!
32dddyy 32rg' 32rdyy/	.	.	32ddd\	.	.
!LO:N:n=2:vis=2	!	!	!	!	!
32bbyy 32rB' 32rEyy/JJJ)	.	.	32bb\JJJ	.	.
!LO:N:n=2:vis=2	!	!	!	!	!
(32cccyy 32rcLLL 32rA-X'/	.	.	32ccc\LLL	.	.
!LO:N:n=2:vis=2	!	!	!	!	!
32eee-yy 32a-rX 32re-X'/	.	.	32eee-X\	.	.
!LO:N:n=2:vis=2	!	!	!	!	!
32fff#yy 32rf#X' 32rByy/	.	.	32fff#X\	.	.
!LO:N:n=2:vis=2	!	!	!	!	!
32aaayy 32rdd' 32rayy/JJJ)	.	.	32aaa\JJJ	.	.
!LO:N:n=2:vis=2	!	!	!	!	!
(32aaayy 32rdd' 32rayy/LLL	.	.	32aaa\LLL	.	.
!LO:N:n=2:vis=2	!	!	!	!	!
32fff#yy 32rf#' 32rByy/	.	.	32fff#\	.	.
!LO:N:n=2:vis=2	!	!	!	!	!
32eee-yy 32ra-y 32re-'/	.	.	32eee-\	.	.
!LO:N:n=2:vis=2	!	!	!	!	!
32cccyy 32rcJJJ 32rA-'/)	.	.	32ccc\JJJ	.	.
!LO:N:n=2:vis=2	!	!	!	!	!
(32cccyy 32rcLLL 32rA-X'/	,	.	32ccc\LLL	.	.
!LO:N:n=2:vis=2	!	!	!	!	!
32eee-yy 32ra-X 32re-X'/	.	.	32eee-X\	.	.
!LO:N:n=2:vis=2	!	!	!	!	!
32fff#yy 32rf#X' 32rByy/	.	.	32fff#X\	.	.
!LO:N:n=2:vis=2	!	!	!	!	!
32aaayy 32rdd' 32rayy/JJJ)	.	.	32aaa\JJJ	.	.
!LO:TX:t=P:problem:kłopot z zapisem flażoletów - #403 flażolety (rozwiązanie tymczasowe)	!	!	!	!	!
(32eenLLL 32bn 32f#/	.	.	32bbbnLLL 32fff#\	.	.
!LO:N:n=2:vis=2	!	!	!	!	!
32eeenyy 32ran 32ren/)	.	.	32eeen\	.	.
32ffn 32ccn 32g`/	.	.	32cccc 32ddd\	.	.
!LO:N:n=2:vis=2	!	!	!	!	!
32cccnyy 32rfnJJJ 32rcn`/	.	.	32ccc\JJJ	.	.
!!LO:LB:g=original
=47	=47	=47	=47	=47	=47
*xywh-22:341,4113,3692,917	*	*	*xywh-22:341,4113,3692,917	*	*
!LO:N:n=2:vis=2	!	!	!	!	!
(32bbyy 32rBn' 32rEyy/LLL	.	.	32bb\LLL	.	.
!LO:N:n=2:vis=2	!	!	!	!	!
32dddyy 32rg' 32rdyy/	.	.	32ddd\	.	.
!LO:N:n=2:vis=2	!	!	!	!	!
32gggyy 32rg 32re-X'/	.	.	32ggg\	.	.
!LO:N:n=2:vis=2	!	!	!	!	!
32ddddyy 32rddJJJ 32rb-X'/)	.	.	32dddd\JJJ	.	.
!LO:N:n=2:vis=2	!	!	!	!	!
(32cccyy 32rcLLL 32rA-X'/	.	.	32ccc\LLL	.	.
!LO:N:n=2:vis=2	!	!	!	!	!
32gggyy 32rg 32re-X'/	.	.	32ggg\	.	.
!LO:N:n=2:vis=2	!	!	!	!	!
32ccccnyy 32rffn 32rcc'/	.	.	32cccc\	.	.
!LO:N:n=2:vis=2	!	!	!	!	!
32eeeeyy 32raan' 32reeyy/JJJ)	.	.	32eeee\JJJ	.	.
!LO:N:n=2:vis=2	!	!	!	!	!
(32aayy 32rdLLL 32rAn'/	.	.	32aa\LLL	.	.
!LO:N:n=2:vis=2	!	!	!	!	!
32eeeyy 32ra 32ren'/	.	.	32eee\	.	.
!LO:N:n=2:vis=2	!	!	!	!	!
32aaayy 32rdd' 32rayy/	.	.	32aaa\	.	.
!LO:N:n=2:vis=2	!	!	!	!	!
32ccccyy 32rffJJJ 32rcc'/)	4	2	32cccc\JJJ	.	.
!LO:N:n=2:vis=2	!	!	!	!	!
(32cccyy 32rcLLL 32rA-X'/	.	.	32ccc\LLL	.	.
!LO:N:n=2:vis=2	!	!	!	!	!
32eee-yy 32ra-X 32re-X'/	.	.	32eee-X\	.	.
!LO:N:n=2:vis=2	!	!	!	!	!
32gggyy 32rg 32re-'/	.	.	32ggg\	.	.
!LO:N:n=2:vis=2	!	!	!	!	!
32aaayy 32rdd' 32rayy/JJJ)	.	.	32aaa\JJJ	.	.
!LO:TX:t=P:problem:kłopot z zapisem flażoletów - #403 flażolety (rozwiązanie tymczasowe)	!	!	!	!	!
32gLLL 32d\	.	.	32ddd\LLL	.	.
32gg 32dd 32bn 32g\	.	.	32dddd 32bbbn\	.	.
32ff#X 32cc#X 32a#X 32f#X\	.	.	32cccc#X 32aaa#X\	.	.
32gg 32ddJJJ 32b 32g\	.	.	32ddddJJJ 32bbb\	.	.
32aaLLL 32ffn 32ccn\	.	.	32eeeeLLL 32ccccn\	.	.
32gg 32dd 32b 32g\	.	.	32dddd 32bbb\	.	.
32ffn 32cc 32an 32fn\	.	.	32cccc 32aaan\	.	.
32eeJJJ 32bn 32g 32e-X\	2 4	3 1	32bbbJJJ 32ggg\	.	.
16ddLL 16f/	.	.	16aaaLL 16fff#\	.	.
!LO:N:n=2:vis=2	!	!	!	!	!
16dddyy 16rg 16rdyy/	.	.	16ddd\	.	.
16ee 16b 16g;</	.	.	16bbb 16ddd;\	.	.
16ddJJ 16ccn 16fn;</	.	.	16aaaJJ 16ccc;\	.	.
*	*v	*v	*	*	*
=	=	=	=	=
2cc 2g 2en;</	.	2ggg 2bb;\	.	.
*	*	*X8va	*	*
!!LO:PB:g=original
=48||	=48||	=48||	=48||	=48||
*M4/4	*	*M4/4	*	*
*met(c)	*	*met(c)	*	*
*xywh-23:84,302,3783,1079	*	*xywh-23:84,302,3783,1079	*	*
*	*	*Xcue	*	*
!	!	!LO:TX:a:t=Arco.	!	!
!	!	!LO:TX:a:B:t=3. VAR.	!	!
!LO:TX:a:t=Pizzicato\nmain gauche.	!	!LO:TX:a:B:t=Poco più lento.	!	!
2ryy	.	(4.g 4.Bv/	.	.
.	.	8a 8d/)	.	.
=49	=49	=49	=49	=49
!	!	!LO:TX:t=P:problem:LO:TX:t=P:problem:linia falowa między nutami 	!	!
4b\	.	(64G/LLLL	.	.
.	.	64B/	.	.
.	.	64d/	.	.
*	*	*	*	*below
.	.	64g/	.	1
.	.	64b/	.	.
.	.	64dd/	.	.
.	.	64gg/	.	1
.	.	64bb/JJJJ	.	.
.	.	64ddd\LLLL	.	.
*	*	*	*	*above
.	.	64ggg\	.	1
.	.	64bbb\	.	2
.	.	64dddd\	.	3
.	.	64gggg\	.	4
.	.	64dddd\	.	3
.	.	64bbb\	.	2
.	.	64ggg\JJJJ)	.	1
!	!	!LO:TX:t=P:problem:linia falowa między nutami 	!	!
4a/	.	(64fff#\LLLL	.	1
.	.	64aaa\	.	3
.	.	64fff#\	.	1
.	.	64ddd\	.	4
.	.	64aa\	.	.
.	.	64ff#\	.	.
.	.	64dd\	.	.
.	.	64a\JJJJ	.	.
!	!	!LO:MO:mod=!LO&colon;TX&colon;t=Sul D	!	!
!	!	!LO:TX:a:i:t=Sul D:problem:text with extention lines	!	!
.	.	64f#\LLLL	.	.
.	.	64d\	.	.
.	.	64f#\	.	.
.	.	64a\	.	1
.	.	64dd\	.	1
.	.	64ff#\	.	3
.	.	64aa\	.	4
.	.	64ddd\JJJJ)	.	4
!!LO:LB:g=original
=-	=-	=-	=-	=-
*xywh-23:69,1332,3667,739	*	*xywh-23:69,1332,3667,739	*	*
4cc\	.	(64d\LLLL	.	.
.	.	64f#\	.	.
.	.	64a\	.	.
.	.	64dd\	.	1
.	.	64ff#\	.	1
.	.	64aa\	.	3
.	.	64ddd\	.	2
.	.	64fff#\JJJJ	.	1
.	.	64aaa\LLLL	.	3
.	.	64dddd\	.	4
.	.	64aaa\	.	3
.	.	64fff#\	.	1
.	.	64ddd\	.	4
.	.	64aa\	.	1
.	.	64ff#\	.	3
.	.	64dd\JJJJ)	.	1
!	!	!LO:TX:t=P:problem:linia falowa między nutami 	!	!
4b\	.	(64gg\LLLL	.	.
.	.	64dd\	.	.
.	.	64bb\	.	.
.	.	64gg\	.	.
.	.	64dd\	.	.
.	.	64b\	.	.
.	.	64g\	.	.
.	.	64d\JJJJ	.	.
!	!	!LO:MO:mod=!LO&colon;TX&colon;t=Sul G	!	!
!	!	!LO:TX:a:i:t=Sul G:problem:text with extention lines	!	!
.	.	64B/LLLL	.	.
.	.	64G/	.	.
.	.	64B/	.	.
*	*	*	*	*below
.	.	64d/	.	1
.	.	64g/	.	1
.	.	64b/	.	3
.	.	64dd/	.	4
.	.	64gg/JJJJ)	.	4
=50	=50	=50	=50	=50
!	!	!LO:TX:t=P:problem:linia falowa między nutami 	!	!
8a/L	.	(64c/LLLL	.	.
.	.	64d/	.	.
.	.	64f#/	.	.
.	.	64a/	.	.
.	.	64dd/	.	.
.	.	64ff#/	.	.
.	.	64aa/	.	.
.	.	64ddd/JJJJ)	.	.
8f#/J	.	(64aa/LLLL	.	.
.	.	64ff#/	.	.
.	.	64dd/	.	.
.	.	64cc/	.	.
.	.	64a/	.	.
.	.	64f#/	.	.
.	.	64d/	.	.
.	.	64c/JJJJ)	.	.
!!LO:LB:g=original
=-	=-	=-	=-	=-
*xywh-23:84,2064,3667,753	*	*xywh-23:84,2064,3667,753	*	*
!	!	!LO:TX:t=P:problem:linia falowa między nutami 	!	!
!	!	!LO:MO:mod=!LO&colon;TX&colon;t=Sul G	!	!
!	!	!LO:TX:a:i:t=Sul G:problem:text with extention lines	!	!
4g/	.	64B`/LLLL	.	.
.	.	(64G/	.	.
.	.	64AT</)	.	.
.	.	(64G/	.	.
.	.	64B/)	.	.
.	.	(64G/	.	.
.	.	64d/)	.	.
.	.	(64G/JJJJ	.	.
.	.	64g/LLLL)	.	.
.	.	(64G/	.	.
.	.	64b/)	.	.
.	.	(64G/	.	.
.	.	64dd/)	.	.
.	.	(64G/	.	.
.	.	64gg/)	.	.
.	.	(64G/JJJJ	.	.
!	!	!LO:TX:t=P:problem:linia falowa między nutami 	!	!
4ee\	.	64c\LLLL	.	.
.	.	64e\	.	.
.	.	64g\	.	.
.	.	64cc\	.	.
.	.	64ee\	.	.
.	.	64gg\	.	.
.	.	64ccc\	.	.
.	.	64eee\JJJJ	.	.
*	*	*	*	*above
.	.	64ggg\LLLL)	.	4
.	.	(64eee\	.	2
.	.	64ccc\	.	4
.	.	64gg\	.	1
.	.	64ee\	.	0
.	.	64cc\	.	.
.	.	64g\	.	.
.	.	64e\JJJJ)	.	.
!	!	!LO:TX:t=P:problem:linia falowa między nutami 	!	!
4dd\	.	(64B\LLLL	.	.
.	.	64d\	.	.
.	.	64g\	.	1
.	.	64b\	.	.
.	.	64dd\	.	.
.	.	64gg\	.	1
.	.	64bb\	.	.
.	.	64ddd\JJJJ	.	.
.	.	64ggg\LLLL)	.	4
.	.	(64ddd\	.	1
.	.	64bb\	.	3
.	.	64gg\	.	1
.	.	64dd\	.	2
.	.	64b\	.	3
.	.	64g\	.	1
.	.	64d\JJJJ)	.	0
!!LO:LB:g=original
=51	=51	=51	=51	=51
*xywh-23:105,2723,3377,710	*	*xywh-23:105,2723,3377,710	*	*
!	!	!LO:TX:t=P:problem:linia falowa między nutami 	!	!
4cc\	.	(<64A/LLLL	.	.
.	.	64d/	.	.
.	.	64f#/	.	.
.	.	64a/	.	.
.	.	64dd/	.	.
.	.	64ff#/	.	.
.	.	64aa/	.	.
.	.	64ddd/JJJJ	.	.
.	.	64fff#\LLLL)	.	4
.	.	(64ddd\	.	2
.	.	64aa\	.	3
.	.	64ff#\	.	1
.	.	64dd\	.	3
.	.	64a\	.	0
.	.	64f#\	.	2
.	.	64d\JJJJ)	.	0
!	!	!LO:TX:t=P:problem:linia falowa między nutami 	!	!
4b\	.	(64G/LLLL	.	.
.	.	64B/	.	.
.	.	64d/	.	.
.	.	64g/	.	.
.	.	64b/	.	.
.	.	64dd/	.	.
.	.	64gg/	.	.
.	.	64bb/JJJJ	.	.
.	.	64ddd/LLLL)	.	.
.	.	(64bb/	.	.
.	.	64gg/	.	.
.	.	64dd/	.	.
.	.	64b/	.	.
.	.	64g/	.	.
.	.	64d/	.	.
.	.	64B/JJJJ)	.	.
!	!	!LO:TX:t=P:problem:linia falowa między nutami 	!	!
4a/	.	(64c/LLLL	.	.
.	.	64e/	.	.
.	.	64g#X/	.	.
.	.	64a/	.	.
.	.	64cc/	.	.
.	.	64ee/	.	.
.	.	64aa/	.	.
.	.	64ccc/JJJJ	.	.
.	.	64eee/LLLL)	.	.
.	.	(64ccc/	.	.
.	.	64aa/	.	.
.	.	64ee/	.	.
.	.	64cc/	.	.
.	.	64a/	.	.
.	.	64e/	.	.
.	.	64c/JJJJ)	.	.
!	!	!LO:TX:t=P:problem:linia falowa między nutami 	!	!
8b/L	.	(64c#X/LLLL	.	.
.	.	64e/	.	.
.	.	64gn/	.	.
.	.	64b/	.	.
.	.	64cc#X/	.	.
.	.	64ee/	.	.
*	*	*	*	*below
.	.	64gg/	.	2
.	.	64aa/JJJJ	.	1
!	!	!LO:TX:t=P:problem:linia falowa między nutami 	!	!
8g/J	.	64bb/LLLL)	.	2
.	.	(64gg/	.	.
.	.	64ee/	.	.
.	.	64cc#X/	.	.
.	.	64a/	.	.
.	.	64g/	.	.
.	.	64e/	.	.
.	.	64c#/JJJJ)	.	.
!!LO:LB:g=original
=52	=52	=52	=52	=52
*xywh-23:142,3433,3529,710	*	*xywh-23:142,3433,3529,710	*	*
!	!	!LO:MO:mod=!LO&colon;TX&colon;t=Sul G	!	!
!	!	!LO:TX:a:i:t=Sul G:problem:text with extention lines	!	!
2dd;\	.	64d`/LLLL	.	.
.	.	(64A/	.	.
.	.	64Bt</	.	.
.	.	64A/	.	.
.	.	64B/	.	.
.	.	64c#X/	.	.
.	.	64d/	.	.
.	.	64e/JJJJ	.	.
.	.	64f#/LLLL)	.	.
.	.	(64c#/	.	.
.	.	64dT</	.	.
.	.	64c#/	.	.
.	.	64d/	.	.
.	.	64e/	.	.
.	.	64f#/	.	.
.	.	64g/JJJJ	.	.
.	.	64a/LLLL)	.	.
!	!	!LO:MO:mod=!LO&colon;TX&colon;t=Sul D	!	!
!	!	!LO:TX:a:i:t=Sul D:problem:text with extention lines	!	!
.	.	(64d/	.	.
.	.	64eT</)	.	.
.	.	(64d/	.	.
.	.	64f#/)	.	.
.	.	(64d/	.	.
.	.	64a/)	.	.
.	.	(64d/JJJJ	.	.
.	.	64dd\LLLL)	.	.
.	.	(64d\	.	.
.	.	64ff#\)	.	.
.	.	(64d\	.	.
.	.	64aa\)	.	.
.	.	((64d\	.	.
.	.	64ddd\)	.	.
.	.	64d\JJJJ)	.	.
!	!	!LO:TX:t=P:problem:linia falowa między nutami 	!	!
4a/	.	(64d\LLLL	.	.
.	.	64f#\	.	.
.	.	64a\	.	.
*	*	*	*	*above
.	.	64dd\	.	1
.	.	64ff#\	.	1
.	.	64aa\	.	3
.	.	64ddd\	.	2
.	.	64fff#\JJJJ	.	2
.	.	64aaa\LLLL)	.	4
.	.	(64fff#\	.	4
.	.	64ddd\	.	2
.	.	64aa\	.	3
.	.	64ff#\	.	1
.	.	64dd\	.	3
.	.	64a\	.	0
.	.	64f#\JJJJ)	.	2
!	!	!LO:TX:t=P:problem:linia falowa między nutami 	!	!
4b\	.	(64d\LLLL	.	.
.	.	64g\	.	.
.	.	64b\	.	.
.	.	64dd\	.	1
.	.	64gg\	.	1
.	.	64bb\	.	3
.	.	64ddd\	.	1
.	.	64ggg\JJJJ	.	1
.	.	64bbb\LLLL)	.	3
.	.	(64ggg\	.	1
.	.	64ddd\	.	4
.	.	64bb\	.	2
.	.	64gg\	.	4
.	.	64dd\	.	1
.	.	64b\	.	3
.	.	64g\JJJJ)	.	1
!!LO:LB:g=original
=53	=53	=53	=53	=53
*xywh-23:134,4093,3529,920	*	*xywh-23:134,4093,3529,920	*	*
8a/L	.	(64d\LLLL	.	.
.	.	64f#\	.	.
.	.	64a\	.	.
.	.	64dd\	.	.
.	.	64ff#\	.	.
.	.	64aa\	.	.
.	.	64fff#\	.	.
.	.	64ddd\JJJJ)	.	.
8f#/J	.	64aa`\LLLL	.	.
.	.	(64a\	.	.
.	.	64dd\	.	1
.	.	64ff#\	.	1
.	.	64aa\	.	3
.	.	64ddd\	.	2
.	.	64fff#\	.	1
.	.	64aaa\JJJJ)	.	3
!	!	!LO:TX:t=P:problem:linia falowa między nutami 	!	!
4d/	.	(64dddd\LLLL	.	4
.	.	64aaa\	.	3
.	.	64fff#\	.	1
.	.	64ggg\	.	2
.	.	64aaa\	.	3
.	.	64fff#\	.	1
.	.	64ddd\	.	1
.	.	64eee\JJJJ	.	2
.	.	64fff#\LLLL	.	3
.	.	64ddd\	.	1
.	.	64aa\	.	1
.	.	64ff#\	.	3
.	.	64dd\	.	1
.	.	64a\	.	0
.	.	64f#\	.	2
.	.	64d\JJJJ)	.	0
4cc\	.	(64d\LLLL	.	.
.	.	64f#\	.	.
.	.	64a\	.	.
.	.	64dd\	.	1
.	.	64ff#\	.	1
.	.	64aa\	.	3
.	.	64ddd\	.	2
.	.	64fff#\JJJJ	.	1
.	.	64aaa\LLLL)	.	3
.	.	(64fff#\	.	1
.	.	64ddd\	.	4
.	.	64aa\	.	1
.	.	64ff#\	.	3
.	.	64dd\	.	1
.	.	64a\	.	0
.	.	64f#\JJJJ)	.	2
4b\	.	(64d\LLLL	.	.
.	.	64g\	.	1
.	.	64b\	.	3
.	.	64dd\	.	1
.	.	64gg\	.	4
.	.	64bb\	.	3
.	.	64ddd\	.	1
.	.	64ggg\JJJJ	.	1
.	.	64bbb\LLLL)	.	3
.	.	(64ggg\	.	1
.	.	64ddd\	.	4
.	.	64bb\	.	2
.	.	64gg\	.	4
.	.	64dd\	.	1
.	.	64b\	.	3
.	.	64g\JJJJ)	.	1
!!LO:LB:g=original
=54	=54	=54	=54	=54
*xywh-24:465,377,3670,968	*	*xywh-24:465,377,3670,968	*	*
8a/L	.	(64d\LLLL	.	.
.	.	64f#\	.	.
.	.	64a\	.	.
.	.	64dd\	.	.
.	.	64ff#\	.	.
.	.	64aa\	.	.
.	.	64fff#\)	.	.
.	.	64ddd\JJJJ	.	.
8f#/J	.	64aa`\LLLL	.	.
.	.	(64a\	.	.
.	.	64dd\	.	1
.	.	64ff#\	.	1
.	.	64aa\	.	3
.	.	64ddd\	.	2
.	.	64fff#\	.	1
.	.	64aaa\JJJJ)	.	3
!	!	!LO:TX:t=P:problem:linia falowa między nutami 	!	!
4d/	.	(64dddd\LLLL	.	4
.	.	64aaa\	.	3
.	.	64fff#\	.	1
.	.	64ggg\	.	2
.	.	64aaa\	.	3
.	.	64fff#\	.	1
.	.	64ddd\	.	1
.	.	64eee\JJJJ	.	.
.	.	64fff#\LLLL	.	.
.	.	64ddd\	.	.
.	.	64aa\	.	.
.	.	64ff#\	.	.
.	.	64dd\	.	.
.	.	64a\	.	.
.	.	64f#\	.	.
.	.	64d\JJJJ)	.	.
!	!	!LO:TX:t=P:problem:linia falowa między nutami 	!	!
4dd\	.	(64B/LLLL	.	.
.	.	64d/	.	.
*	*	*	*	*below
.	.	64g/	.	1
.	.	64b/	.	3
.	.	64dd/	.	1
.	.	64gg/	.	.
.	.	64bb/	.	.
.	.	64ddd/JJJJ	.	2
*	*	*	*	*above
.	.	64ggg\LLLL)	.	4
.	.	(64ddd\	.	4
.	.	64bb\	.	.
.	.	64gg\	.	.
.	.	64dd\	.	.
.	.	64b\	.	.
.	.	64g\	.	.
.	.	64d\JJJJ)	.	.
!	!	!LO:TX:t=P:problem:linia falowa między nutami 	!	!
4cc\	.	(64A/LLLL	.	.
.	.	64d/	.	.
.	.	64f#/	.	.
.	.	64a/	.	.
*	*	*	*	*below
.	.	64dd/	.	1
.	.	64ff#/	.	1
.	.	64aa/	.	3
.	.	64ddd/JJJJ	.	2
*	*	*	*	*above
.	.	64fff#\LLLL)	.	4
.	.	(64ddd\	.	2
.	.	64aa\	.	3
.	.	64ff#\	.	1
.	.	64dd\	.	3
.	.	64a\	.	0
.	.	64f#\	.	2
.	.	64d\JJJJ)	.	0
!!LO:LB:g=original
=55	=55	=55	=55	=55
*xywh-24:451,1237,3605,742	*	*xywh-24:451,1237,3605,742	*	*
!	!	!LO:TX:t=P:problem:linia falowa między nutami 	!	!
4.b\	.	(64G/LLLL	.	.
.	.	64B/	.	.
.	.	64d/	.	.
*	*	*	*	*below
.	.	64g/	.	1
.	.	64b/	.	.
.	.	64dd/	.	.
.	.	64gg/	.	1
.	.	64bb/JJJJ	.	.
.	.	64ddd\LLLL	.	.
*	*	*	*	*above
.	.	64ggg\	.	1
.	.	64bbb\	.	2
.	.	64dddd\	.	3
.	.	64gggg\)	.	4
.	.	(64dddd\	.	3
.	.	64bbb\	.	2
.	.	64ggg\JJJJ	.	1
.	.	64ddd\LLLL	.	4
.	.	64bb\	.	2
.	.	64gg\	.	4
.	.	64dd\	.	1
.	.	64b\	.	3
.	.	64g\	.	1
.	.	64d\	.	0
.	.	64B\JJJJ	.	2
!	!	!LO:TX:t=P:problem:linia falowa między nutami 	!	!
8b\	.	64G/LLLL	.	.
.	.	64B/	.	.
.	.	64d/	.	.
.	.	64g/	.	.
.	.	64b/	.	.
.	.	64g/	.	.
.	.	64d/	.	.
.	.	64B/JJJJ)	.	.
!	!	!LO:TX:t=P:problem:linia falowa między nutami 	!	!
4.cc#X\	.	(64G/LLLL	.	.
.	.	64A/	.	.
.	.	64c#X/	.	.
.	.	64e/	.	.
.	.	64g/	.	.
.	.	64a/	.	.
.	.	64cc#X/	.	.
.	.	64ee/JJJJ	.	.
.	.	64gg\LLLL	.	.
.	.	64aa\	.	.
.	.	64ccc#X\	.	.
.	.	64aa\	.	.
.	.	64eeee\)	.	.
.	.	(64cccc#X\	.	3
.	.	64aaa\	.	1
.	.	64ggg\JJJJ	.	4
.	.	64eee\LLLL	.	3
.	.	64ccc#\	.	1
.	.	64aa\	.	3
.	.	64gg\	.	2
.	.	64ee\	.	0
.	.	64cc#\	.	.
.	.	64a\	.	.
.	.	64g\JJJJ	.	.
!	!	!LO:TX:t=P:problem:linia falowa między nutami 	!	!
8cc#\	.	64e/LLLL	.	.
.	.	64g/	.	.
.	.	64e/	.	.
.	.	64c#/	.	.
.	.	64A/	.	.
.	.	64B-X/	.	.
.	.	64Bn/	.	.
.	.	64c#/JJJJ)	.	.
!!LO:LB:g=original
=56	=56	=56	=56	=56
*xywh-24:443,1965,3612,786	*	*xywh-24:443,1965,3612,786	*	*
!LO:TX:t=P:problem:fing – kreska przedłużająca 3__	!	!LO:TX:t=P:problem:linia falowa między nutami 	!LO:HP:a	!
32dd\LLL	1 3	[4d/	<	.
32dd\	1	.	.	.
32ee\	0	.	.	.
32ff#\	1	.	.	.
32gg\	1	.	.	.
32aa\	1	.	.	.
32bb\	1	.	.	.
32ccc\JJJ	1	.	.	.
!	!	!LO:MO:mod=!LO&colon;TX&colon;t=Sul D	!	!
!	!	!LO:TX:a:i:t=Sul D:problem:text with extention lines	!	!
4ddd\	1	64d/LLLL]	[	.
.	.	(64d/	.	.
.	.	64eT</)	.	.
.	.	(64d/	.	.
.	.	64f#/)	.	.
.	.	(64d/	.	.
.	.	64a/)	.	.
.	.	(<64d/JJJJ	.	.
.	.	64dd\LLLL)	.	.
.	.	(64d\	.	.
.	.	64ff#\)	.	.
.	.	(64d\	.	.
.	.	64aa\)	.	.
.	.	((64d\	.	.
.	.	64ddd\)	.	.
.	.	64d\JJJJ)	.	.
*	*below	*	*	*
!	!	!LO:TX:t=P:problem:linia falowa między nutami 	!	!
4.gg\	1	(64B/LLLL	.	.
.	.	64d/	.	.
.	.	64g/	.	.
.	.	64b/	.	.
.	.	64dd/	.	.
*	*	*	*	*below
.	.	64gg/	.	1
.	.	64bb/	.	.
.	.	64ddd/JJJJ	.	.
*	*	*	*	*above
.	.	64ggg\LLLL	.	1
.	.	64bbb\	.	3
.	.	64dddd\)	.	4
.	.	(64bbb\	.	.
.	.	64ggg\	.	.
.	.	64ddd\	.	4
.	.	64bb\	.	.
.	.	64gg\JJJJ	.	.
.	.	64dd\LLLL	.	.
.	.	64b\	.	.
.	.	64ddd\	.	.
.	.	64bb\	.	.
.	.	64gg\	.	.
.	.	64dd\	.	.
.	.	64b\	.	.
.	.	64g\JJJJ	.	.
!	!	!LO:TX:t=P:problem:linia falowa między nutami 	!	!
8ff#\	.	64d/LLLL	.	.
.	.	64B/	.	.
.	.	64dd/	.	.
.	.	64b/	.	.
.	.	64g/	.	.
.	.	64d/	.	.
.	.	64B/	.	.
.	.	64G/JJJJ)	.	.
!!LO:LB:g=original
=57	=57	=57	=57	=57
*xywh-24:443,2657,3597,786	*	*xywh-24:443,2657,3597,786	*	*
!	!	!LO:TX:t=P:problem:linia falowa między nutami 	!	!
8ff#\L	.	(64c/LLLL	.	.
.	.	64G/	.	.
*	*	*	*	*below
.	.	64c/	.	1
.	.	64d/	.	.
.	.	64e/	.	3
.	.	64g/	.	1
.	.	64cc/	.	4
.	.	64ee/JJJJ	.	2
*	*	*	*	*above
8ee<\J	0	64gg\LLLL	.	2
.	.	64ee\	.	4
.	.	64cc\	.	2
.	.	64g\	.	3
.	.	64cc\	.	2
.	.	64ee\	.	4
.	.	64gg\	.	2
.	.	64ccc\JJJJ)	.	3
!	!	!LO:TX:t=P:problem:linia falowa między nutami 	!	!
4dd\	.	(64bb\LLLL	.	2
.	.	64ccc\	.	.
.	.	64ccc#X\	.	.
.	.	64ddd\	.	.
.	.	64gg\	.	.
.	.	64aa\	.	.
.	.	64aa#X\	.	.
.	.	64bb\JJJJ	.	.
.	.	64dd\LLLL	.	.
.	.	64ee\	.	.
.	.	64ff#\	.	.
.	.	64gg\	.	.
.	.	64b\	.	.
.	.	64ccn\	.	.
.	.	64cc#X\	.	.
.	.	64dd\JJJJ)	.	.
4.ee:\	.	(64ccn:\LLLL	.	.
.	.	64g\	.	.
.	.	64cc\	.	.
.	.	64ee\	.	1
.	.	64gg\	.	3
.	.	64ccc#\	.	2
.	.	64eee\	.	1
.	.	64ggg\JJJJ	.	3
.	.	64cccc\LLLL	.	4
.	.	64eeee\)	.	4
.	.	(64cccc\	.	3
.	.	64ggg\	.	1
.	.	64eee\	.	4
.	.	64ccc#\	.	.
.	.	64gg\	.	.
.	.	64ee\JJJJ	.	.
.	.	64cc/LLLL	.	.
.	.	64g/	.	.
.	.	64gg/	.	.
.	.	64ee/	.	.
.	.	64cc/	.	.
.	.	64g/	.	.
.	.	64e/	.	.
.	.	64c/JJJJ	.	1
!	!	!LO:TX:t=P:problem:linia falowa między nutami 	!	!
8dd\	2	64B/LLLL	.	1
.	.	64d/	.	.
.	.	64dd/	.	.
.	.	64b/	.	.
.	.	64g/	.	.
.	.	64d/	.	.
.	.	64B/	.	.
.	.	64G/JJJJ)	.	.
!!LO:LB:g=original
=58	=58	=58	=58	=58
*xywh-24:458,3363,3597,750	*	*xywh-24:458,3363,3597,750	*	*
8dd\L	.	(64A/LLLL	.	.
.	.	64d/	.	.
.	.	64eT</	.	.
.	.	64d/	.	.
.	.	64f#/	.	.
.	.	64a/	.	.
.	.	64dd/	.	.
.	.	64ff#/JJJJ	.	.
!	!	!LO:TX:t=P:problem:linia falowa między nutami 	!	!
8cc\J	.	64aa/LLLL)	.	.
.	.	(64ff#/	.	.
.	.	64dd/	.	.
.	.	64a/	.	.
.	.	64f#/	.	.
.	.	64d/	.	.
.	.	64c/	.	.
.	.	64A/JJJJ	.	.
!	!	!LO:TX:t=P:problem:linia falowa między nutami 	!	!
4b\	.	32G/LLL)	.	.
.	.	(64G/L	.	.
.	.	64g/)	.	.
.	.	(64B/	.	.
.	.	64b/)	.	.
.	.	(64d/	.	.
.	.	64dd/JJJJ)	.	.
.	.	(64g\LLLL	.	.
.	.	64gg\)	.	.
.	.	(64b\	.	.
.	.	64bb\)	.	.
.	.	(64dd\	.	.
.	.	64ddd\)	.	.
.	.	(64gg\	.	.
.	.	64ggg\JJJJ)	.	.
!	!	!LO:TX:t=P:problem:linia falowa między nutami 	!	!
4.a 4.d/	.	(64aaa\LLLL	.	4
.	.	64ggg#X\	.	3
.	.	64gggn\	.	3
.	.	64fff#\	.	2
.	.	64fffn\	.	2
.	.	64eee\	.	1
.	.	64ddd#X\	.	4
.	.	64dddn\JJJ	.	3
.	.	64ccc#X\LLL	.	2
.	.	64cccn\	.	2
.	.	64bb\	.	1
.	.	64bb-X\	.	4
.	.	64aa\	.	3
.	.	64gg#X\	.	2
.	.	64ggn\	.	2
.	.	64ff#X\JJJJ)	.	1
.	.	(64ee\LLLL	.	.
.	.	64dd\	.	.
.	.	64cc\	.	.
.	.	64b\	.	.
.	.	64a\	.	.
.	.	64g\	.	.
.	.	64f#\	.	.
.	.	64e\JJJJ	.	.
!	!	!LO:TX:t=P:problem:linia falowa między nutami 	!	!
16b\LL	.	64d/LLLL)	.	.
.	.	(64c#X/	.	.
.	.	64cn/	.	.
.	.	64B/	.	.
!	!	!LO:TX:t=P:problem:linia falowa między nutami 	!	!
16cc\JJ	.	64A/	.	.
.	.	64d/	.	.
.	.	64eT</	.	.
.	.	64d/JJJJ)	.	.
!!LO:LB:g=original
=59	=59	=59	=59	=59
*xywh-24:443,4033,3605,997	*	*xywh-24:443,4033,3605,997	*	*
!	!	!LO:TX:t=P:problem:linia falowa między nutami 	!	!
8dd\L	.	(64B/LLLL	.	.
.	.	64G/	.	.
.	.	64B/	.	.
.	.	64d/	.	.
*	*	*	*	*below
.	.	64g/	.	1
.	.	64b/	.	1
.	.	64dd/	.	3
.	.	64bb/JJJJ	.	4
!	!	!LO:TX:t=P:problem:linia falowa między nutami 	!	!
8ee\	.	64ccc/LLLL)	.	4
.	.	(64gg/	.	4
.	.	64ee/	.	2
.	.	64cc/	.	.
.	.	64g/	.	.
.	.	64e/	.	.
.	.	64c/	.	.
.	.	64G/JJJJ)	.	.
!	!	!LO:TX:t=P:problem:linia falowa między nutami 	!	!
8cc\	.	(64A/LLLL	.	.
.	.	64e/	.	.
.	.	64a/	.	.
.	.	64cc/	.	.
.	.	64ee/	.	.
.	.	64aa/	.	.
.	.	64ccc/	.	.
.	.	64eee/JJJJ	.	.
!	!	!LO:TX:t=P:problem:linia falowa między nutami 	!	!
8a\J	.	64aaa\LLLL)	.	.
*	*	*	*	*above
.	.	(64eee\	.	4
.	.	64ccc\	.	3
.	.	64aa\	.	1
.	.	64ee\	.	2
.	.	64cc\	.	4
.	.	64a\	.	2
.	.	64e\JJJJ)	.	3
4g/	.	(64d\LLLL	.	.
.	.	64g\	.	.
.	.	64b\	.	.
.	.	64dd\	.	.
.	.	64gg\	.	.
.	.	64bb\	.	.
.	.	64ddd\	.	.
.	.	64ggg\JJJJ	.	.
.	.	64bbb\LLLL)	.	.
.	.	(64ggg\	.	.
.	.	64ddd\	.	.
.	.	64bb\	.	.
.	.	64gg\	.	.
.	.	64dd\	.	.
.	.	64b\	.	.
.	.	64g\JJJJ)	.	.
8b\L	.	(64d\LLLL	.	.
.	.	64f#\	.	.
.	.	64cc\	.	1
.	.	64dd\	.	2
.	.	64ff#\	.	1
.	.	64ccc\	.	4
.	.	64ddd\	.	1
.	.	64fff#\JJJJ	.	3
!	!	!LO:TX:t=P:problem:linia falowa między nutami 	!	!
8a\J	.	64aaa\LLLL)	.	.
.	.	(64fff#\	.	2
.	.	64ddd\	.	4
.	.	64ccc\	.	3
.	.	128aa\L	.	.
.	.	128ff#\	.	.
.	.	128dd\	.	.
.	.	128a\	.	.
.	.	128f#\	.	.
.	.	128d\	.	.
.	.	128c\	.	.
.	.	128A\JJJJJ)	.	.
!!LO:LB:g=original
=60	=60	=60	=60	=60
*xywh-25:113,310,3732,963	*	*xywh-25:113,310,3732,963	*	*
!	!	!LO:TX:t=P:problem:linia falowa między nutami 	!	!
4g/	.	(64G/LLLL	.	.
.	.	64B/	.	.
.	.	64d/	.	.
.	.	64g/	.	.
.	.	64b/	.	.
.	.	64dd/	.	.
.	.	64gg/	.	.
.	.	64bb/JJJJ	.	.
.	.	64ddd\LLLL	.	.
.	.	64ggg\	.	1
.	.	64bbb\	.	2
.	.	64dddd\	.	3
.	.	64gggg\)	.	4
.	.	(64dddd\	.	3
.	.	64bbb\	.	2
.	.	64ggg\JJJJ	.	1
4r	.	64ddd\LLLL	.	4
.	.	64bb\	.	2
.	.	64ggg\	.	4
.	.	64ddd\	.	1
.	.	64bb\	.	3
.	.	64gg\	.	1
.	.	64dd\	.	1
.	.	64b\JJJJ	.	3
*	*	*	*	*below
.	.	64g/LLLL	.	1
.	.	64d/	.	.
.	.	64dd/	.	.
.	.	64b/	.	.
.	.	64g/	.	.
.	.	64d/	.	.
.	.	64B/	.	.
.	.	64G/JJJJ)	.	.
!	!	!LO:TX:t=P:problem:linia falowa między nutami 	!	!
4gg 4cc 4e\	.	(64G/LLLL	.	.
.	.	64c/	.	.
.	.	64e/	.	.
.	.	64g/	.	.
.	.	64cc/	.	.
.	.	64ee/	.	1
.	.	64gg/	.	3
.	.	64ccc/JJJJ	.	2
*	*	*	*	*above
.	.	64eee\LLLL	.	1
*	*	*8va	*	*
.	.	64ggg\	.	3
.	.	64cccc\	.	1
.	.	64eeee\	.	3
.	.	64gggg\)	.	4
.	.	(64eeee\	.	3
.	.	64cccc\	.	1
.	.	64ggg\JJJJ	.	4
*	*	*X8va	*	*
4r	.	64eee\LLLL	.	3
.	.	64ccc\	.	1
.	.	64ggg\	.	4
.	.	64eee\	.	3
.	.	64ccc\	.	1
.	.	64gg\	.	2
.	.	64ee\	.	0
.	.	64cc\JJJJ	.	.
.	.	64g/LLLL	.	.
.	.	64e/	.	.
.	.	64gg/	.	.
.	.	64ee/	.	.
.	.	64cc/	.	.
.	.	64g/	.	.
.	.	64e/	.	.
.	.	64c/JJJJ)	.	.
!!LO:LB:g=original
=61	=61	=61	=61	=61
*xywh-25:142,1266,3761,790	*	*xywh-25:142,1266,3761,790	*	*
4gg 4b 4d\	.	(64G/LLLL	.	.
.	.	64B/	.	.
.	.	64d/	.	.
.	.	64g/	.	.
.	.	64b/	.	.
.	.	64dd/	.	.
.	.	64gg/	.	.
.	.	64bb/JJJJ	.	.
*	*	*8va	*	*
.	.	64ddd\LLLL	.	.
.	.	64ggg\	.	.
.	.	64bbb\	.	.
.	.	64dddd\	.	.
.	.	64gggg\)	.	.
.	.	(64dddd\	.	.
.	.	64bbb\	.	.
.	.	64ggg\JJJJ	.	.
*	*	*X8va	*	*
!	!	!LO:TX:a:i:t=loco	!	!
4r	.	64ddd\LLLL	.	.
.	.	64bb\	.	.
.	.	64ggg\	.	.
.	.	64ddd\	.	.
.	.	64bb\	.	.
.	.	64gg\	.	.
.	.	64dd\	.	.
.	.	64b\JJJJ	.	.
.	.	64g/LLLL	.	.
.	.	64d/	.	.
.	.	64dd/	.	.
.	.	64b/	.	.
.	.	64g/	.	.
.	.	64d/	.	.
.	.	64B/	.	.
.	.	64G/JJJJ)	.	.
4gg 4cc 4e-X\	.	(64G/LLLL	.	.
.	.	64c/	.	.
.	.	64e-X/	.	.
.	.	64g/	.	.
.	.	64cc/	.	.
.	.	64ee-X/	.	.
.	.	64gg/	.	.
.	.	64ccc/JJJJ	.	.
*	*	*8va	*	*
.	.	64eee-X\LLLL	.	.
.	.	64ggg\	.	.
.	.	64cccc\	.	.
.	.	64eeee-X\	.	.
.	.	64gggg\)	.	.
.	.	(64eeee-\	.	.
.	.	64cccc\	.	.
.	.	64ggg\JJJJ	.	.
*	*	*X8va	*	*
!	!	!LO:TX:a:i:t=loco	!	!
4r	.	64eee-\LLLL	.	.
.	.	64ccc\	.	.
.	.	64ggg\	.	.
.	.	64eee-\	.	.
.	.	64ccc\	.	.
.	.	64gg\	.	.
.	.	64ee-\	.	.
.	.	64cc\JJJJ	.	.
.	.	64g\LLLL	.	.
.	.	64e-\	.	.
.	.	64gg\	.	.
.	.	64ee-\	.	.
.	.	64cc\	.	.
.	.	64g\	.	.
.	.	64e-\	.	.
.	.	64c\JJJJ)	.	.
!!LO:LB:g=original
=62	=62	=62	=62	=62
*xywh-25:127,1984,3537,869	*	*xywh-25:127,1984,3537,869	*	*
!	!	!LO:TX:t=P:problem:linia falowa między nutami 	!	!
4gg 4b 4d\	.	(64G/LLLL	.	.
.	.	64A/	.	.
.	.	64B/	.	.
.	.	64d/	.	.
*	*	*	*	*below
.	.	64g/	.	1
.	.	64a/	.	.
.	.	64b/	.	.
.	.	64dd/JJJJ	.	.
*	*	*	*	*above
.	.	64gg\LLLL	.	1
.	.	64aa\	.	.
.	.	64bb\	.	.
.	.	64ddd\	.	.
*	*	*8va	*	*
.	.	64ggg\	.	1
.	.	64aaa\	.	.
.	.	64bbb\	.	1
.	.	64dddd\JJJJ	.	.
4r	.	64gggg\LLLL)	.	4
.	.	(64dddd\	.	3
.	.	64bbb\	.	3
.	.	64aaa\	.	2
*	*	*X8va	*	*
.	.	64ggg\	.	1
.	.	64ddd\	.	4
.	.	64bb\	.	.
.	.	64aa\JJJJ	.	.
.	.	64gg/LLLL	.	.
.	.	64dd/	.	.
.	.	64b/	.	.
.	.	64a/	.	.
.	.	64g/	.	.
.	.	64d/	.	.
.	.	64B/	.	.
.	.	64A/JJJJ)	.	.
!	!	!LO:TX:t=P:problem:linia falowa między nutami 	!	!
4gg 4b 4d\	.	(64G/LLLL	.	.
.	.	64A/	.	.
.	.	64B/	.	.
.	.	64d/	.	.
.	.	64g/	.	.
.	.	64a/	.	.
.	.	64b/	.	.
.	.	64dd/JJJJ	.	.
.	.	64gg\LLLL	.	.
.	.	64aa\	.	.
.	.	64bb\	.	.
.	.	64ddd\	.	.
*	*	*8va	*	*
.	.	64ggg\	.	.
.	.	64aaa\	.	.
.	.	64bbb\	.	.
.	.	64dddd\JJJJ	.	.
4r	.	64gggg\LLLL)	.	.
.	.	(64dddd\	.	.
.	.	64bbb\	.	.
.	.	64aaa\	.	.
*	*	*X8va	*	*
.	.	64ggg\	.	.
.	.	64ddd\	.	.
.	.	64bb\	.	.
.	.	64aa\JJJJ	.	.
.	.	64gg/LLLL	.	.
.	.	64dd/	.	.
.	.	64b/	.	.
.	.	64a/	.	.
.	.	64g/	.	.
.	.	64d/	.	.
.	.	64B/	.	.
.	.	64A/JJJJ)	.	.
=63	=63	=63	=63	=63
4r	.	2G/	.	.
4gg 4b 4d 4G/	.	.	.	.
2r;	.	2r;	.	.
==	==	==	==	==
*-	*-	*-	*-	*-
!!!system-decoration: {(s1,s2)}
!!!RDF**kern: > = above
!!!RDF**kern: < = below
!!!filter-modern: sic -sq | filtr autostem -r | shed -k -e “s/([^a-gA-Gn#X-])[<>]/$1/g”  |shed -e "s/TX(.*):t=P:/tx$1:t=P:/LG" | shed -e "s/LO:DY:(a|b|rj)/LO:dy:$1/L" | modori -m
!!!ENC: Katarzyna Serwa
!!!END: 2022-05-19
!!!ENC: Berenika Jozajtis
!!!END: 2022-05-13
!!!ENC-modern: Leszek Kubiak
!!!END-modern: 2022-07-19
!!!ENC-iiif: Natalia Wrzos
!!!END-iiif: 2022-08-30
!!!YEC: Copyright 2022 Narodowy Instytut Fryderyka Chopina (https://polishscores.org)
!!!YEM: License CC-BY-4.0 (https://creativecommons.org/licenses/by/4.0)
